; generated by PrusaSlicer 2.3.3+win64 on 2021-08-17 at 13:57:57 UTC

; 

; external perimeters extrusion width = 0.45mm
; perimeters extrusion width = 0.45mm
; infill extrusion width = 0.45mm
; solid infill extrusion width = 0.45mm
; top infill extrusion width = 0.40mm
; first layer extrusion width = 0.42mm

M73 P0 R82
M73 Q0 S83
M201 X1000 Y1000 Z200 E5000 ; sets maximum accelerations, mm/sec^2
M203 X200 Y200 Z12 E120 ; sets maximum feedrates, mm/sec
M204 P1250 R1250 T1250 ; sets acceleration (P, T) and retract acceleration (R), mm/sec^2
M205 X8.00 Y8.00 Z0.40 E4.50 ; sets the jerk limits, mm/sec
M205 S0 T0 ; sets the minimum extruding and travel feed rate, mm/sec
M107
;TYPE:Custom
M862.3 P "MK3S" ; printer model check
M862.1 P0.4 ; nozzle diameter check
M115 U3.10.0 ; tell printer latest fw version
G90 ; use absolute coordinates
M83 ; extruder relative mode
M104 S215 ; set extruder temp
M140 S60 ; set bed temp
M190 S60 ; wait for bed temp
M109 S215 ; wait for extruder temp
G28 W ; home all without mesh bed level
G80 ; mesh bed leveling
G1 Y-3.0 F1000.0 ; go outside print area
G92 E0.0
G1 X60.0 E9.0 F1000.0 ; intro line
G1 X100.0 E12.5 F1000.0 ; intro line
G92 E0.0
M221 S95

; Don't change E values below. Excessive value can damage the printer.
M907 E430 ; set extruder motor current
G21 ; set units to millimeters
G90 ; use absolute coordinates
M83 ; use relative distances for extrusion
M900 K0.05 ; Filament gcode LA 1.5
M900 K30 ; Filament gcode LA 1.0
;LAYER_CHANGE
;Z:0.2
;HEIGHT:0.2
;BEFORE_LAYER_CHANGE
G92 E0.0
;0.2


G1 E-0.80000 F2100.000
G1 Z0.400 F10800.000
;AFTER_LAYER_CHANGE
;0.2
G1 X79.821 Y75.360
G1 Z0.200
G1 E0.80000 F2100.000
M204 S1000
;TYPE:Skirt
;WIDTH:0.42
G1 F1200.000
G1 X82.616 Y72.825 E0.11831
G1 X85.627 Y70.592 E0.11756
G1 X88.847 Y68.661 E0.11772
G1 X92.140 Y67.101 E0.11425
G1 X104.606 Y62.007 E0.42224
G1 X105.261 Y61.895 E0.02083
G1 X108.435 Y61.894 E0.09950
G1 X109.301 Y62.059 E0.02767
G1 X121.513 Y67.053 E0.41367
G1 X124.981 Y68.698 E0.12034
G1 X128.134 Y70.591 E0.11533
G1 X131.146 Y72.825 E0.11757
G1 X133.928 Y75.346 E0.11772
G1 X136.374 Y78.040 E0.11409
G1 X138.749 Y81.243 E0.12500
G1 X140.619 Y84.369 E0.11421
G1 X142.264 Y87.866 E0.12118
G1 X143.488 Y91.297 E0.11421
G1 X144.399 Y94.938 E0.11770
M73 Q0 S82
G1 X144.949 Y98.648 E0.11758
G1 X145.132 Y102.443 E0.11914
G1 X144.949 Y106.146 E0.11622
G1 X144.398 Y109.860 E0.11774
G1 X143.486 Y113.501 E0.11768
G1 X142.221 Y117.036 E0.11771
G1 X140.615 Y120.429 E0.11772
G1 X138.685 Y123.648 E0.11769
G1 X136.449 Y126.664 E0.11770
G1 X133.929 Y129.445 E0.11769
G1 X131.147 Y131.966 E0.11772
G1 X128.132 Y134.202 E0.11768
G1 X124.912 Y136.132 E0.11772
G1 X121.518 Y137.736 E0.11771
G1 X117.983 Y139.001 E0.11770
G1 X114.342 Y139.913 E0.11769
G1 X110.629 Y140.464 E0.11770
G1 X106.834 Y140.647 E0.11914
G1 X103.130 Y140.463 E0.11627
G1 X99.418 Y139.913 E0.11767
G1 X95.776 Y139.000 E0.11772
G1 X92.242 Y137.735 E0.11769
G1 X88.848 Y136.131 E0.11770
G1 X85.628 Y134.200 E0.11771
G1 X82.614 Y131.964 E0.11768
G1 X79.832 Y129.442 E0.11772
G1 X77.311 Y126.662 E0.11767
G1 X75.077 Y123.649 E0.11759
G1 X73.146 Y120.426 E0.11782
G1 X71.540 Y117.034 E0.11767
G1 X70.276 Y113.498 E0.11773
G1 X69.364 Y109.857 E0.11770
G1 X68.813 Y106.144 E0.11770
G1 X68.629 Y102.349 E0.11912
G1 X68.813 Y98.645 E0.11627
G1 X69.365 Y94.931 E0.11772
G1 X70.276 Y91.291 E0.11768
G1 X71.541 Y87.756 E0.11771
G1 X73.147 Y84.362 E0.11772
G1 X75.077 Y81.143 E0.11769
G1 X77.313 Y78.128 E0.11770
G1 X79.780 Y75.405 E0.11521
; printing object Base.stl id:0 copy 0
;WIPE_START
G1 F8640.000
G1 X82.215 Y73.190 E-0.76000
;WIPE_END
G1 E-0.04000 F2100.000
G1 Z0.600 F10800.000
G1 X107.644 Y67.346
G1 Z0.200
G1 E0.80000 F2100.000
;TYPE:Perimeter
G1 F1200.000
G1 X110.321 Y67.478 E0.08403
G1 X113.726 Y67.983 E0.10794
G1 X117.066 Y68.820 E0.10796
G1 X120.308 Y69.980 E0.10797
G1 X123.421 Y71.452 E0.10797
G1 X126.375 Y73.222 E0.10797
G1 X129.140 Y75.273 E0.10794
G1 X131.692 Y77.586 E0.10799
G1 X134.004 Y80.137 E0.10794
G1 X136.054 Y82.902 E0.10796
G1 X137.825 Y85.856 E0.10797
G1 X139.298 Y88.968 E0.10795
G1 X140.458 Y92.210 E0.10796
G1 X141.294 Y95.550 E0.10796
G1 X141.799 Y98.957 E0.10798
G1 X141.968 Y102.396 E0.10795
G1 X141.799 Y105.835 E0.10795
G1 X141.294 Y109.241 E0.10798
G1 X140.458 Y112.581 E0.10796
G1 X139.298 Y115.823 E0.10796
G1 X137.825 Y118.935 E0.10795
G1 X136.054 Y121.889 E0.10797
G1 X134.004 Y124.655 E0.10796
G1 X131.692 Y127.205 E0.10794
G1 X129.140 Y129.519 E0.10799
G1 X126.375 Y131.569 E0.10794
G1 X123.421 Y133.340 E0.10797
G1 X120.308 Y134.812 E0.10797
G1 X117.066 Y135.972 E0.10797
G1 X113.726 Y136.809 E0.10796
G1 X110.321 Y137.313 E0.10794
G1 X106.881 Y137.483 E0.10798
G1 X103.442 Y137.313 E0.10795
G1 X100.036 Y136.809 E0.10794
G1 X96.697 Y135.972 E0.10796
G1 X93.454 Y134.812 E0.10797
G1 X90.341 Y133.340 E0.10797
G1 X87.388 Y131.569 E0.10797
G1 X84.623 Y129.519 E0.10794
G1 X82.071 Y127.205 E0.10799
G1 X79.759 Y124.655 E0.10794
G1 X77.708 Y121.889 E0.10796
G1 X75.938 Y118.935 E0.10797
G1 X74.465 Y115.823 E0.10795
G1 X73.305 Y112.581 E0.10796
G1 X72.469 Y109.241 E0.10796
G1 X71.963 Y105.834 E0.10798
G1 X71.794 Y102.396 E0.10795
G1 X71.963 Y98.957 E0.10795
G1 X72.469 Y95.550 E0.10798
G1 X73.305 Y92.210 E0.10796
G1 X74.465 Y88.968 E0.10796
G1 X75.938 Y85.856 E0.10795
G1 X77.708 Y82.902 E0.10797
G1 X79.759 Y80.137 E0.10796
G1 X82.071 Y77.586 E0.10794
G1 X84.623 Y75.273 E0.10799
G1 X87.388 Y73.222 E0.10794
G1 X90.341 Y71.452 E0.10797
G1 X93.454 Y69.980 E0.10797
G1 X96.697 Y68.820 E0.10797
G1 X100.036 Y67.983 E0.10796
G1 X103.442 Y67.478 E0.10794
G1 X106.118 Y67.346 E0.08400
G1 X106.118 Y65.058 E0.07175
G1 X107.644 Y65.058 E0.04784
G1 X107.644 Y67.286 E0.06987
G1 X108.021 Y66.987 F10800.000
;TYPE:External perimeter
G1 F1200.000
G1 X110.358 Y67.102 E0.07336
G1 X113.800 Y67.612 E0.10910
G1 X117.176 Y68.459 E0.10912
G1 X120.453 Y69.631 E0.10913
G1 X123.599 Y71.119 E0.10913
G1 X126.585 Y72.908 E0.10913
G1 X129.379 Y74.981 E0.10910
G1 X131.958 Y77.319 E0.10915
G1 X134.295 Y79.897 E0.10910
G1 X136.368 Y82.693 E0.10912
G1 X138.158 Y85.678 E0.10913
G1 X139.647 Y88.824 E0.10912
G1 X140.819 Y92.101 E0.10913
G1 X141.664 Y95.477 E0.10912
G1 X142.175 Y98.920 E0.10914
G1 X142.345 Y102.396 E0.10911
G1 X142.175 Y105.871 E0.10911
G1 X141.664 Y109.315 E0.10914
G1 X140.819 Y112.691 E0.10912
G1 X139.647 Y115.968 E0.10913
G1 X138.158 Y119.113 E0.10912
G1 X136.368 Y122.099 E0.10913
G1 X134.295 Y124.894 E0.10912
G1 X131.958 Y127.472 E0.10910
G1 X129.379 Y129.810 E0.10915
G1 X126.585 Y131.883 E0.10910
G1 X123.599 Y133.673 E0.10913
G1 X120.453 Y135.160 E0.10913
G1 X117.176 Y136.333 E0.10913
G1 X113.800 Y137.179 E0.10912
G1 X110.358 Y137.689 E0.10910
G1 X106.881 Y137.860 E0.10914
G1 X103.405 Y137.689 E0.10911
G1 X99.963 Y137.179 E0.10910
G1 X96.587 Y136.333 E0.10912
G1 X93.310 Y135.160 E0.10913
G1 X90.163 Y133.673 E0.10913
G1 X87.178 Y131.883 E0.10913
G1 X84.383 Y129.810 E0.10910
G1 X81.804 Y127.472 E0.10915
G1 X79.467 Y124.894 E0.10910
G1 X77.394 Y122.099 E0.10912
G1 X75.605 Y119.113 E0.10913
G1 X74.116 Y115.968 E0.10912
G1 X72.944 Y112.691 E0.10913
G1 X72.098 Y109.315 E0.10912
G1 X71.587 Y105.871 E0.10914
G1 X71.416 Y102.396 E0.10911
G1 X71.587 Y98.920 E0.10911
G1 X72.098 Y95.477 E0.10914
G1 X72.944 Y92.101 E0.10912
G1 X74.116 Y88.824 E0.10913
G1 X75.605 Y85.678 E0.10912
G1 X77.394 Y82.693 E0.10913
G1 X79.467 Y79.897 E0.10912
G1 X81.804 Y77.319 E0.10910
G1 X84.383 Y74.981 E0.10915
G1 X87.178 Y72.908 E0.10910
G1 X90.163 Y71.119 E0.10913
G1 X93.310 Y69.631 E0.10913
G1 X96.587 Y68.459 E0.10913
G1 X99.963 Y67.612 E0.10912
G1 X103.405 Y67.102 E0.10910
G1 X105.741 Y66.987 E0.07333
G1 X105.741 Y64.681 E0.07232
G1 X108.021 Y64.681 E0.07149
G1 X108.021 Y66.927 E0.07044
G1 X108.111 Y67.377 F10800.000
;WIPE_START
G1 F8640.000
G1 X110.358 Y67.102 E-0.54108
G1 X111.295 Y67.241 E-0.21892
;WIPE_END
G1 E-0.04000 F2100.000
G1 Z0.600 F10800.000
G1 X129.056 Y75.352
G1 Z0.200
G1 E0.80000 F2100.000
;TYPE:Solid infill
;WIDTH:0.421215
G1 F1200.000
G1 X131.497 Y77.793 E0.10858
G1 X133.785 Y80.316 E0.10714
G1 X134.642 Y81.473 E0.04528
G1 X127.803 Y74.633 E0.30425
G1 X126.218 Y73.457 E0.06208
G1 X125.904 Y73.269 E0.01150
G1 X136.006 Y83.371 E0.44937
G1 X136.806 Y84.706 E0.04897
G1 X124.569 Y72.469 E0.54437
G1 X123.246 Y71.682 E0.04840
G1 X137.594 Y86.029 E0.63823
G1 X138.074 Y87.045 E0.03535
G1 X122.232 Y71.202 E0.70476
G1 X121.217 Y70.722 E0.03531
G1 X138.555 Y88.061 E0.77129
G1 X139.036 Y89.076 E0.03535
M73 Q1 S82
G1 X120.202 Y70.242 E0.83782
M73 P1 R82
G1 X119.369 Y69.944 E0.02784
G1 X139.334 Y89.909 E0.88815
G1 X139.632 Y90.742 E0.02783
G1 X118.536 Y69.646 E0.93847
G1 X117.703 Y69.348 E0.02783
G1 X139.930 Y91.575 E0.98878
G1 X140.212 Y92.392 E0.02716
G1 X116.886 Y69.066 E1.03763
G1 X116.172 Y68.887 E0.02315
G1 X140.390 Y93.106 E1.07734
M73 P1 R81
G1 X140.569 Y93.819 E0.02314
G1 X115.458 Y68.708 E1.11705
G1 X114.744 Y68.529 E0.02315
G1 X140.748 Y94.533 E1.15676
G1 X140.926 Y95.247 E0.02314
G1 X114.030 Y68.350 E1.19646
G1 X113.671 Y68.260 E0.01165
G1 X113.359 Y68.214 E0.00992
G1 X141.062 Y95.918 E1.23239
G1 X141.156 Y96.546 E0.01998
G1 X112.731 Y68.121 E1.26447
G1 X112.103 Y68.028 E0.01997
G1 X141.249 Y97.174 E1.29656
G1 X141.342 Y97.802 E0.01998
G1 X111.475 Y67.935 E1.32865
M73 Q1 S81
G1 X110.847 Y67.842 E0.01997
G1 X141.435 Y98.431 E1.36074
G1 X141.521 Y99.051 E0.01970
G1 X110.226 Y67.756 E1.39213
G1 X109.664 Y67.729 E0.01772
G1 X141.548 Y99.614 E1.41839
G1 X141.576 Y100.176 E0.01772
G1 X109.101 Y67.701 E1.44464
G1 X108.538 Y67.673 E0.01772
G1 X141.604 Y100.739 E1.47090
G1 X141.631 Y101.301 E0.01772
G1 X107.797 Y67.467 E1.50510
;WIPE_START
G1 F8640.000
G1 X110.124 Y69.794 E-0.76000
;WIPE_END
G1 E-0.04000 F2100.000
G1 Z0.600 F10800.000
G1 X107.531 Y65.596
G1 Z0.200
G1 E0.80000 F2100.000
G1 F1200.000
G1 X107.275 Y65.341 E0.01135
G1 X106.740 Y65.341 E0.01683
G1 X107.361 Y65.961 E0.02760
G1 X107.361 Y66.496 E0.01683
G1 X106.401 Y65.536 E0.04272
G1 X106.401 Y66.071 E0.01683
G1 X107.531 Y67.201 E0.05026
;WIPE_START
G1 F8640.000
G1 X106.401 Y66.071 E-0.36897
G1 X106.401 Y65.536 E-0.12353
G1 X107.220 Y66.355 E-0.26750
;WIPE_END
G1 E-0.04000 F2100.000
G1 Z0.600 F10800.000
G1 X106.231 Y66.436
G1 Z0.200
G1 E0.80000 F2100.000
G1 F1200.000
G1 X141.659 Y101.864 E1.57598
G1 X141.683 Y102.423 E0.01762
G1 X106.401 Y67.141 E1.56953
G1 X106.401 Y67.615 E0.01493
G1 X106.343 Y67.618 E0.00181
G1 X141.658 Y102.933 E1.57098
G1 X141.633 Y103.443 E0.01606
G1 X105.833 Y67.643 E1.59255
G1 X105.323 Y67.668 E0.01606
G1 X141.608 Y103.953 E1.61412
M73 P2 R81
M73 Q2 S81
G1 X141.583 Y104.464 E0.01606
G1 X104.813 Y67.694 E1.63570
G1 X104.304 Y67.719 E0.01606
G1 X141.558 Y104.974 E1.65727
G1 X141.534 Y105.484 E0.01606
G1 X103.794 Y67.744 E1.67884
G1 X103.300 Y67.785 E0.01559
G1 X141.492 Y105.977 E1.69898
G1 X141.423 Y106.443 E0.01481
G1 X102.834 Y67.854 E1.71663
G1 X102.368 Y67.923 E0.01482
G1 X141.354 Y106.909 E1.73428
G1 X141.285 Y107.375 E0.01481
G1 X101.902 Y67.992 E1.75193
M73 P2 R80
G1 X101.436 Y68.061 E0.01482
G1 X141.216 Y107.841 E1.76959
G1 X141.147 Y108.307 E0.01481
G1 X100.970 Y68.130 E1.78724
G1 X100.504 Y68.199 E0.01482
G1 X141.077 Y108.773 E1.80489
G1 X141.004 Y109.234 E0.01470
G1 X100.043 Y68.273 E1.82215
M73 Q2 S80
G1 X99.615 Y68.380 E0.01387
G1 X140.897 Y109.662 E1.83642
G1 X140.790 Y110.090 E0.01387
G1 X99.187 Y68.487 E1.85068
G1 X98.759 Y68.594 E0.01387
G1 X140.683 Y110.518 E1.86495
G1 X140.576 Y110.946 E0.01387
G1 X98.332 Y68.701 E1.87921
G1 X97.904 Y68.809 E0.01387
G1 X140.468 Y111.373 E1.89347
G1 X140.361 Y111.801 E0.01387
G1 X97.476 Y68.916 E1.90774
M73 P3 R80
M73 Q3 S80
G1 X97.048 Y69.023 E0.01387
G1 X140.254 Y112.229 E1.92200
G1 X140.187 Y112.499 E0.00875
G1 X140.135 Y112.644 E0.00487
G1 X96.633 Y69.143 E1.93515
G1 X96.239 Y69.284 E0.01316
G1 X139.994 Y113.039 E1.94641
G1 X139.853 Y113.433 E0.01316
G1 X95.845 Y69.425 E1.95767
G1 X95.451 Y69.566 E0.01316
G1 X139.712 Y113.827 E1.96892
G1 X139.571 Y114.221 E0.01316
G1 X95.057 Y69.707 E1.98018
G1 X94.663 Y69.848 E0.01316
G1 X139.430 Y114.615 E1.99144
G1 X139.289 Y115.009 E0.01316
G1 X94.269 Y69.989 E2.00269
G1 X93.875 Y70.130 E0.01316
G1 X139.148 Y115.403 E2.01395
M73 P3 R79
G1 X139.000 Y115.790 E0.01304
G1 X93.487 Y70.277 E2.02464
G1 X93.124 Y70.449 E0.01264
G1 X138.829 Y116.153 E2.03315
G1 X138.657 Y116.516 E0.01264
G1 X92.761 Y70.621 E2.04166
G1 X92.397 Y70.792 E0.01264
G1 X138.485 Y116.880 E2.05018
G1 X138.313 Y117.243 E0.01264
G1 X92.034 Y70.964 E2.05869
M73 Q3 S79
G1 X91.671 Y71.136 E0.01264
G1 X138.141 Y117.606 E2.06720
G1 X137.969 Y117.969 E0.01264
G1 X91.308 Y71.308 E2.07572
M73 P4 R79
M73 Q4 S79
G1 X90.944 Y71.479 E0.01264
G1 X137.797 Y118.332 E2.08423
G1 X137.625 Y118.695 E0.01264
G1 X90.581 Y71.651 E2.09274
G1 X90.238 Y71.843 E0.01236
G1 X137.433 Y119.038 E2.09945
G1 X137.233 Y119.373 E0.01227
G1 X89.904 Y72.044 E2.10542
G1 X89.569 Y72.244 E0.01227
G1 X137.032 Y119.707 E2.11138
G1 X136.832 Y120.042 E0.01227
G1 X89.235 Y72.445 E2.11734
G1 X88.900 Y72.645 E0.01227
G1 X136.631 Y120.376 E2.12330
G1 X136.431 Y120.711 E0.01227
G1 X88.566 Y72.845 E2.12926
G1 X88.231 Y73.046 E0.01227
G1 X136.230 Y121.045 E2.13523
G1 X136.030 Y121.380 E0.01227
G1 X87.897 Y73.246 E2.14119
G1 X87.562 Y73.447 E0.01227
G1 X135.830 Y121.714 E2.14715
M73 P4 R78
G1 X135.603 Y122.023 E0.01204
G1 X87.254 Y73.673 E2.15081
G1 X86.947 Y73.901 E0.01203
G1 X135.375 Y122.330 E2.15434
G1 X135.148 Y122.637 E0.01203
G1 X86.639 Y74.129 E2.15787
M73 P5 R78
M73 Q5 S79
G1 X86.332 Y74.357 E0.01203
G1 X134.920 Y122.944 E2.16140
M73 Q5 S78
G1 X134.692 Y123.252 E0.01203
G1 X86.025 Y74.585 E2.16493
G1 X85.718 Y74.813 E0.01203
G1 X134.464 Y123.559 E2.16846
G1 X134.236 Y123.866 E0.01203
G1 X85.411 Y75.040 E2.17199
G1 X85.104 Y75.268 E0.01203
G1 X134.009 Y124.173 E2.17552
G1 X133.780 Y124.480 E0.01203
G1 X84.797 Y75.497 E2.17901
G1 X84.516 Y75.751 E0.01191
G1 X133.526 Y124.761 E2.18017
G1 X133.272 Y125.041 E0.01191
G1 X84.236 Y76.005 E2.18134
G1 X83.955 Y76.260 E0.01191
G1 X133.017 Y125.322 E2.18251
G1 X132.763 Y125.602 E0.01191
G1 X83.674 Y76.514 E2.18368
G1 X83.394 Y76.768 E0.01191
G1 X132.509 Y125.883 E2.18485
G1 X132.254 Y126.164 E0.01191
G1 X83.113 Y77.023 E2.18601
G1 X82.833 Y77.277 E0.01191
G1 X132.000 Y126.444 E2.18718
G1 X131.745 Y126.725 E0.01191
G1 X82.552 Y77.532 E2.18835
M73 P6 R78
G1 X82.271 Y77.786 E0.01191
G1 X131.491 Y127.006 E2.18951
M73 P6 R77
M73 Q6 S78
G1 X131.210 Y127.260 E0.01191
G1 X82.017 Y78.067 E2.18835
G1 X81.763 Y78.347 E0.01191
G1 X130.930 Y127.514 E2.18718
G1 X130.649 Y127.769 E0.01191
G1 X81.508 Y78.628 E2.18601
M73 Q6 S77
G1 X81.254 Y78.908 E0.01191
G1 X130.369 Y128.023 E2.18485
G1 X130.088 Y128.277 E0.01191
G1 X81.000 Y79.189 E2.18368
G1 X80.745 Y79.470 E0.01191
G1 X129.807 Y128.532 E2.18251
G1 X129.527 Y128.786 E0.01191
G1 X80.491 Y79.750 E2.18134
G1 X80.236 Y80.031 E0.01191
G1 X129.246 Y129.041 E2.18017
G1 X128.965 Y129.295 E0.01191
G1 X79.982 Y80.311 E2.17901
G1 X79.754 Y80.618 E0.01203
G1 X128.659 Y129.523 E2.17552
G1 X128.352 Y129.751 E0.01203
G1 X79.526 Y80.925 E2.17199
G1 X79.298 Y81.233 E0.01203
G1 X128.045 Y129.979 E2.16846
G1 X127.737 Y130.207 E0.01203
G1 X79.070 Y81.540 E2.16493
G1 X78.843 Y81.847 E0.01203
G1 X127.430 Y130.435 E2.16140
M73 P7 R77
M73 Q7 S77
G1 X127.123 Y130.662 E0.01203
G1 X78.615 Y82.154 E2.15787
G1 X78.387 Y82.461 E0.01203
G1 X126.816 Y130.890 E2.15434
G1 X126.509 Y131.118 E0.01203
G1 X78.159 Y82.769 E2.15081
M73 P7 R76
G1 X77.933 Y83.077 E0.01204
G1 X126.200 Y131.345 E2.14715
G1 X125.866 Y131.545 E0.01227
G1 X77.732 Y83.412 E2.14119
G1 X77.532 Y83.746 E0.01227
G1 X125.531 Y131.745 E2.13523
G1 X125.197 Y131.946 E0.01227
G1 X77.331 Y84.081 E2.12926
M73 Q7 S76
G1 X77.131 Y84.415 E0.01227
G1 X124.862 Y132.146 E2.12330
G1 X124.528 Y132.347 E0.01227
G1 X76.931 Y84.750 E2.11734
G1 X76.730 Y85.084 E0.01227
G1 X124.193 Y132.547 E2.11138
G1 X123.859 Y132.748 E0.01227
G1 X76.530 Y85.419 E2.10542
G1 X76.329 Y85.753 E0.01227
G1 X123.524 Y132.948 E2.09945
G1 X123.181 Y133.140 E0.01236
G1 X76.137 Y86.096 E2.09274
G1 X75.965 Y86.459 E0.01264
G1 X122.818 Y133.312 E2.08423
M73 P8 R76
