; generated by PrusaSlicer 2.3.3+win64 on 2021-08-18 at 17:58:33 UTC

; 

; external perimeters extrusion width = 0.45mm
; perimeters extrusion width = 0.45mm
; infill extrusion width = 0.45mm
; solid infill extrusion width = 0.45mm
; top infill extrusion width = 0.40mm
; first layer extrusion width = 0.42mm

M73 P0 R51
M73 Q0 S52
M201 X1000 Y1000 Z200 E5000 ; sets maximum accelerations, mm/sec^2
M203 X200 Y200 Z12 E120 ; sets maximum feedrates, mm/sec
M204 P1250 R1250 T1250 ; sets acceleration (P, T) and retract acceleration (R), mm/sec^2
M205 X8.00 Y8.00 Z0.40 E4.50 ; sets the jerk limits, mm/sec
M205 S0 T0 ; sets the minimum extruding and travel feed rate, mm/sec
M107
;TYPE:Custom
M862.3 P "MK3S" ; printer model check
M862.1 P0.4 ; nozzle diameter check
M115 U3.10.0 ; tell printer latest fw version
G90 ; use absolute coordinates
M83 ; extruder relative mode
M104 S215 ; set extruder temp
M140 S60 ; set bed temp
M190 S60 ; wait for bed temp
M109 S215 ; wait for extruder temp
G28 W ; home all without mesh bed level
G80 ; mesh bed leveling
G1 Y-3.0 F1000.0 ; go outside print area
G92 E0.0
G1 X60.0 E9.0 F1000.0 ; intro line
G1 X100.0 E12.5 F1000.0 ; intro line
G92 E0.0
M221 S95

; Don't change E values below. Excessive value can damage the printer.

M907 E538 ; set extruder motor current
G21 ; set units to millimeters
G90 ; use absolute coordinates
M83 ; use relative distances for extrusion
M900 K0.05 ; Filament gcode LA 1.5
M900 K30 ; Filament gcode LA 1.0
;LAYER_CHANGE
;Z:0.2
;HEIGHT:0.2
;BEFORE_LAYER_CHANGE
G92 E0.0
;0.2


G1 E-0.80000 F2100.000
G1 Z0.400 F10800.000
;AFTER_LAYER_CHANGE
;0.2
G1 X96.387 Y81.540
G1 Z0.200
G1 E0.80000 F2100.000
M204 S1000
;TYPE:Skirt
;WIDTH:0.42
G1 F1200.000
G1 X98.833 Y78.838 E0.11428
G1 X101.472 Y76.443 E0.11174
G1 X104.453 Y74.227 E0.11646
G1 X107.858 Y72.226 E0.12383
G1 X110.845 Y70.813 E0.10362
G1 X114.195 Y69.612 E0.11157
G1 X117.779 Y68.710 E0.11589
G1 X121.310 Y68.183 E0.11192
G1 X123.455 Y68.072 E0.06734
G1 X126.497 Y68.071 E0.09539
G1 X128.655 Y68.179 E0.06775
G1 X132.138 Y68.695 E0.11039
G1 X135.658 Y69.568 E0.11370
G1 X139.151 Y70.811 E0.11625
G1 X142.070 Y72.189 E0.10123
G1 X145.543 Y74.225 E0.12621
G1 X148.460 Y76.386 E0.11385
G1 X151.163 Y78.834 E0.11434
G1 X153.555 Y81.470 E0.11160
G1 X155.773 Y84.454 E0.11657
G1 X157.776 Y87.860 E0.12392
G1 X159.187 Y90.846 E0.10353
G1 X160.408 Y94.256 E0.11358
G1 X161.292 Y97.782 E0.11397
G1 X161.823 Y101.372 E0.11378
G1 X161.929 Y103.504 E0.06694
G1 X161.928 Y106.540 E0.09517
G1 X161.830 Y108.557 E0.06331
G1 X161.292 Y112.216 E0.11597
M73 Q0 S51
G1 X160.412 Y115.733 E0.11366
G1 X159.187 Y119.155 E0.11397
G1 X157.779 Y122.136 E0.10336
G1 X155.776 Y125.544 E0.12395
G1 X153.611 Y128.464 E0.11397
G1 X151.164 Y131.165 E0.11429
G1 X148.479 Y133.600 E0.11365
G1 X145.544 Y135.776 E0.11456
G1 X142.139 Y137.777 E0.12383
G1 X139.155 Y139.188 E0.10350
G1 X135.744 Y140.409 E0.11360
G1 X132.221 Y141.291 E0.11387
G1 X128.630 Y141.824 E0.11383
G1 X126.494 Y141.929 E0.06705
G1 X123.461 Y141.929 E0.09510
G1 X121.444 Y141.831 E0.06330
G1 X117.783 Y141.292 E0.11602
G1 X114.269 Y140.413 E0.11359
G1 X110.846 Y139.188 E0.11399
G1 X107.865 Y137.779 E0.10338
G1 X104.457 Y135.776 E0.12395
G1 X101.537 Y133.612 E0.11397
G1 X98.834 Y131.164 E0.11434
G1 X96.401 Y128.478 E0.11363
G1 X94.225 Y125.544 E0.11454
G1 X92.224 Y122.141 E0.12380
G1 X90.813 Y119.155 E0.10353
G1 X89.592 Y115.745 E0.11358
G1 X88.708 Y112.217 E0.11401
G1 X88.177 Y108.629 E0.11374
G1 X88.071 Y106.497 E0.06694
G1 X88.072 Y103.461 E0.09517
G1 X88.170 Y101.444 E0.06331
G1 X88.708 Y97.784 E0.11600
G1 X89.588 Y94.268 E0.11364
G1 X90.813 Y90.846 E0.11397
G1 X92.221 Y87.865 E0.10336
G1 X94.224 Y84.458 E0.12393
G1 X96.351 Y81.588 E0.11199
;WIPE_START
G1 F8640.000
G1 X98.556 Y79.145 E-0.76000
;WIPE_END
G1 E-0.04000 F2100.000
G1 Z0.600 F10800.000
G1 X92.153 Y86.028
G1 Z0.200
G1 E0.80000 F2100.000
G1 F1200.000
G1 X92.446 Y85.075 E0.03124
G1 X93.234 Y83.770 E0.04781
G1 X95.490 Y80.734 E0.11859
G1 X98.010 Y77.958 E0.11756
G1 X100.777 Y75.454 E0.11701
G1 X103.788 Y73.223 E0.11749
G1 X105.124 Y72.425 E0.04881
G1 X106.028 Y72.154 E0.02959
G1 X106.135 Y72.008 E0.00568
G1 X106.858 Y71.372 E0.03019
G1 X110.325 Y69.724 E0.12037
G1 X113.944 Y68.428 E0.12054
G1 X117.509 Y67.535 E0.11522
G1 X121.162 Y66.986 E0.11583
G1 X124.055 Y66.854 E0.09080
G1 X125.026 Y67.094 E0.03135
G1 X125.196 Y67.018 E0.00586
G1 X125.985 Y66.851 E0.02529
G1 X128.724 Y66.975 E0.08596
G1 X132.473 Y67.532 E0.11883
G1 X136.145 Y68.455 E0.11872
G1 X139.657 Y69.717 E0.11703
G1 X143.142 Y71.372 E0.12096
G1 X143.867 Y72.009 E0.03025
G1 X143.972 Y72.154 E0.00562
G1 X144.926 Y72.447 E0.03129
G1 X146.262 Y73.256 E0.04897
G1 X149.282 Y75.502 E0.11800
G1 X152.044 Y78.011 E0.11698
G1 X154.557 Y80.790 E0.11750
G1 X156.755 Y83.753 E0.11567
G1 X157.553 Y85.073 E0.04836
G1 X157.847 Y86.027 E0.03131
G1 X157.991 Y86.132 E0.00559
G1 X158.629 Y86.857 E0.03028
G1 X160.284 Y90.344 E0.12099
G1 X161.578 Y93.962 E0.12049
G1 X162.477 Y97.563 E0.11638
G1 X163.025 Y101.275 E0.11764
G1 X163.153 Y103.975 E0.08473
G1 X162.906 Y105.029 E0.03395
G1 X162.983 Y105.198 E0.00583
G1 X163.149 Y105.988 E0.02531
G1 X163.015 Y108.820 E0.08887
G1 X162.462 Y112.509 E0.11696
G1 X161.557 Y116.109 E0.11641
G1 X160.284 Y119.657 E0.11819
G1 X158.630 Y123.143 E0.12098
G1 X157.992 Y123.868 E0.03025
G1 X157.847 Y123.974 E0.00566
G1 X157.576 Y124.876 E0.02953
G1 X156.767 Y126.229 E0.04943
G1 X154.498 Y129.282 E0.11927
G1 X151.977 Y132.057 E0.11756
G1 X149.195 Y134.571 E0.11756
G1 X146.212 Y136.779 E0.11636
G1 X144.875 Y137.577 E0.04882
G1 X143.972 Y137.847 E0.02955
G1 X143.865 Y137.994 E0.00570
G1 X143.141 Y138.630 E0.03021
G1 X139.657 Y140.284 E0.12095
G1 X136.036 Y141.579 E0.12055
G1 X132.417 Y142.480 E0.11693
G1 X128.725 Y143.026 E0.11702
G1 X126.024 Y143.153 E0.08480
G1 X124.972 Y142.907 E0.03389
G1 X124.803 Y142.983 E0.00580
G1 X124.014 Y143.149 E0.02530
G1 X121.199 Y143.018 E0.08835
G1 X117.491 Y142.462 E0.11756
G1 X113.874 Y141.552 E0.11694
G1 X110.361 Y140.292 E0.11704
G1 X106.858 Y138.630 E0.12156
G1 X106.134 Y137.992 E0.03026
G1 X106.028 Y137.847 E0.00562
G1 X105.074 Y137.554 E0.03129
G1 X103.770 Y136.766 E0.04779
G1 X100.733 Y134.512 E0.11857
G1 X97.970 Y132.004 E0.11702
G1 X95.419 Y129.181 E0.11927
G1 X93.245 Y126.247 E0.11451
G1 X92.447 Y124.928 E0.04834
G1 X92.153 Y123.974 E0.03131
G1 X92.009 Y123.869 E0.00560
G1 X91.371 Y123.144 E0.03026
G1 X89.716 Y119.657 E0.12101
G1 X88.416 Y116.019 E0.12113
G1 X87.516 Y112.398 E0.11700
G1 X86.975 Y108.725 E0.11640
G1 X86.847 Y106.027 E0.08471
G1 X87.094 Y104.972 E0.03394
G1 X87.017 Y104.803 E0.00583
G1 X86.851 Y104.013 E0.02530
G1 X86.983 Y101.201 E0.08828
G1 X87.534 Y97.511 E0.11700
G1 X88.443 Y93.892 E0.11698
M73 Q1 S51
G1 X89.716 Y90.344 E0.11820
M73 P1 R51
G1 X91.370 Y86.858 E0.12097
G1 X92.007 Y86.133 E0.03025
G1 X92.104 Y86.063 E0.00376
;WIPE_START
G1 F8640.000
G1 X92.446 Y85.075 E-0.24131
G1 X93.234 Y83.770 E-0.35209
G1 X93.664 Y83.191 E-0.16660
;WIPE_END
G1 E-0.04000 F2100.000
G1 Z0.600 F10800.000
G1 X92.534 Y123.770
G1 Z0.200
G1 E0.80000 F2100.000
G1 F1200.000
G1 X92.270 Y123.596 E0.00991
G1 X91.700 Y122.958 E0.02683
G1 X90.061 Y119.504 E0.11985
G1 X88.780 Y115.919 E0.11937
G1 X87.887 Y112.334 E0.11584
G1 X87.352 Y108.698 E0.11524
G1 X87.225 Y106.035 E0.08359
G1 X87.418 Y105.213 E0.02648
G1 X87.530 Y104.995 E0.00767
G1 X87.380 Y104.695 E0.01053
G1 X87.229 Y104.006 E0.02213
G1 X87.357 Y101.247 E0.08658
G1 X87.902 Y97.593 E0.11583
G1 X88.802 Y94.011 E0.11582
G1 X90.061 Y90.497 E0.11703
G1 X91.699 Y87.045 E0.11981
G1 X92.269 Y86.406 E0.02683
G1 X92.533 Y86.232 E0.00994
G1 X92.548 Y86.019 E0.00669
G1 X92.781 Y85.250 E0.02521
G1 X93.552 Y83.973 E0.04678
G1 X95.775 Y80.980 E0.11688
G1 X98.270 Y78.231 E0.11640
G1 X101.023 Y75.739 E0.11642
G1 X103.989 Y73.542 E0.11575
G1 X105.297 Y72.761 E0.04775
G1 X106.019 Y72.549 E0.02361
G1 X106.232 Y72.535 E0.00669
G1 X106.408 Y72.269 E0.00999
G1 X107.045 Y71.700 E0.02677
G1 X110.478 Y70.069 E0.11920
G1 X114.045 Y68.791 E0.11878
G1 X117.592 Y67.903 E0.11464
G1 X121.208 Y67.361 E0.11467
G1 X124.044 Y67.232 E0.08899
G1 X124.813 Y67.428 E0.02490
G1 X125.007 Y67.528 E0.00684
G1 X125.304 Y67.380 E0.01042
G1 X125.994 Y67.229 E0.02213
G1 X128.697 Y67.351 E0.08486
G1 X132.390 Y67.900 E0.11705
G1 X136.026 Y68.813 E0.11755
G1 X139.504 Y70.061 E0.11587
G1 X142.956 Y71.700 E0.11980
G1 X143.593 Y72.270 E0.02682
G1 X143.768 Y72.535 E0.00993
G1 X143.982 Y72.549 E0.00672
G1 X144.751 Y72.782 E0.02521
G1 X146.044 Y73.564 E0.04737
G1 X149.035 Y75.787 E0.11685
G1 X151.770 Y78.271 E0.11582
G1 X154.259 Y81.023 E0.11635
G1 X156.437 Y83.956 E0.11455
G1 X157.218 Y85.248 E0.04733
G1 X157.452 Y86.017 E0.02521
G1 X157.466 Y86.231 E0.00673
G1 X157.730 Y86.405 E0.00990
G1 X158.301 Y87.044 E0.02686
G1 X159.939 Y90.497 E0.11983
G1 X161.214 Y94.063 E0.11874
G1 X162.105 Y97.628 E0.11522
G1 X162.648 Y101.303 E0.11647
G1 X162.775 Y103.966 E0.08361
G1 X162.582 Y104.788 E0.02648
G1 X162.470 Y105.006 E0.00767
G1 X162.620 Y105.306 E0.01053
G1 X162.771 Y105.996 E0.02214
G1 X162.641 Y108.773 E0.08717
G1 X162.094 Y112.426 E0.11579
G1 X161.198 Y115.991 E0.11525
G1 X159.939 Y119.504 E0.11703
G1 X158.301 Y122.956 E0.11981
G1 X157.731 Y123.595 E0.02683
G1 X157.466 Y123.769 E0.00994
G1 X157.453 Y123.980 E0.00662
G1 X157.240 Y124.704 E0.02364
G1 X156.459 Y126.012 E0.04778
G1 X154.213 Y129.036 E0.11810
G1 X151.717 Y131.784 E0.11640
G1 X148.963 Y134.273 E0.11641
G1 X146.010 Y136.460 E0.11519
G1 X144.702 Y137.240 E0.04776
G1 X143.979 Y137.453 E0.02362
G1 X143.768 Y137.466 E0.00665
G1 X143.592 Y137.732 E0.00999
G1 X142.955 Y138.301 E0.02679
G1 X139.503 Y139.940 E0.11979
G1 X135.936 Y141.216 E0.11879
G1 X132.353 Y142.109 E0.11578
G1 X128.698 Y142.649 E0.11584
G1 X126.033 Y142.775 E0.08367
G1 X125.210 Y142.582 E0.02650
G1 X124.994 Y142.471 E0.00760
G1 X124.695 Y142.621 E0.01049
G1 X124.006 Y142.772 E0.02213
G1 X121.245 Y142.644 E0.08664
G1 X117.574 Y142.094 E0.11639
G1 X113.993 Y141.194 E0.11578
G1 X110.514 Y139.947 E0.11587
G1 X107.045 Y138.301 E0.12039
G1 X106.407 Y137.731 E0.02684
G1 X106.232 Y137.466 E0.00994
G1 X106.017 Y137.452 E0.00676
G1 X105.249 Y137.219 E0.02517
G1 X103.972 Y136.448 E0.04676
G1 X100.980 Y134.226 E0.11686
G1 X98.243 Y131.744 E0.11585
G1 X95.717 Y128.949 E0.11812
G1 X93.563 Y126.044 E0.11339
G1 X92.782 Y124.753 E0.04731
G1 X92.548 Y123.984 E0.02521
G1 X92.538 Y123.829 E0.00485
;WIPE_START
G1 F8640.000
G1 X92.270 Y123.596 E-0.08209
G1 X91.700 Y122.958 E-0.19760
G1 X90.808 Y121.078 E-0.48031
;WIPE_END
G1 E-0.04000 F2100.000
G1 Z0.600 F10800.000
G1 X125.148 Y67.883
G1 Z0.200
G1 E0.80000 F2100.000
G1 F1200.000
G1 X125.416 Y67.741 E0.00950
G1 X126.003 Y67.607 E0.01889
G1 X128.670 Y67.728 E0.08373
G1 X132.325 Y68.271 E0.11585
G1 X135.907 Y69.171 E0.11581
G1 X139.351 Y70.406 E0.11470
G1 X142.768 Y72.029 E0.11861
G1 X143.318 Y72.529 E0.02331
G1 X143.485 Y72.800 E0.00999
G1 X143.681 Y72.915 F10800.000
G1 F1200.000
G1 X143.904 Y72.919 E0.00700
G1 X144.578 Y73.118 E0.02201
G1 X145.842 Y73.882 E0.04631
G1 X148.789 Y76.073 E0.11514
G1 X151.497 Y78.531 E0.11466
G1 X153.962 Y81.255 E0.11520
G1 X156.119 Y84.159 E0.11342
G1 X156.883 Y85.422 E0.04627
G1 X157.082 Y86.095 E0.02201
G1 X157.086 Y86.314 E0.00689
G1 X157.205 Y86.516 F10800.000
G1 F1200.000
G1 X157.471 Y86.681 E0.00982
G1 X157.972 Y87.232 E0.02334
G1 X159.594 Y90.650 E0.11863
G1 X160.851 Y94.163 E0.11698
G1 X161.733 Y97.692 E0.11406
G1 X162.272 Y101.330 E0.11530
G1 X162.397 Y103.956 E0.08244
G1 X162.223 Y104.669 E0.02300
G1 X162.117 Y104.856 E0.00675
G1 X162.117 Y105.149 F10800.000
G1 F1200.000
G1 X162.259 Y105.418 E0.00952
G1 X162.393 Y106.005 E0.01890
G1 X162.267 Y108.727 E0.08544
G1 X161.726 Y112.343 E0.11462
G1 X160.840 Y115.872 E0.11410
G1 X159.594 Y119.351 E0.11586
G1 X157.972 Y122.769 E0.11862
G1 X157.472 Y123.319 E0.02331
G1 X157.205 Y123.484 E0.00986
G1 X157.086 Y123.686 F10800.000
G1 F1200.000
G1 X157.082 Y123.905 E0.00688
G1 X156.903 Y124.532 E0.02044
G1 X156.140 Y125.810 E0.04669
G1 X153.927 Y128.789 E0.11634
G1 X151.457 Y131.510 E0.11524
G1 X148.731 Y133.976 E0.11525
G1 X145.809 Y136.141 E0.11402
G1 X144.531 Y136.904 E0.04667
G1 X143.905 Y137.082 E0.02042
G1 X143.686 Y137.086 E0.00685
G1 X143.482 Y137.206 F10800.000
G1 F1200.000
G1 X143.316 Y137.473 E0.00985
G1 X142.767 Y137.973 E0.02328
G1 X139.350 Y139.595 E0.11859
G1 X135.836 Y140.852 E0.11703
G1 X132.289 Y141.737 E0.11462
G1 X128.671 Y142.273 E0.11467
G1 X126.043 Y142.397 E0.08250
G1 X125.330 Y142.223 E0.02301
G1 X125.144 Y142.117 E0.00670
G1 X124.851 Y142.117 F10800.000
G1 F1200.000
G1 X124.584 Y142.259 E0.00950
G1 X123.996 Y142.394 E0.01889
G1 X121.291 Y142.270 E0.08491
G1 X117.657 Y141.726 E0.11522
G1 X114.111 Y140.836 E0.11463
G1 X110.667 Y139.602 E0.11470
G1 X107.233 Y137.973 E0.11920
G1 X106.682 Y137.472 E0.02332
G1 X106.518 Y137.206 E0.00982
G1 X106.314 Y137.086 F10800.000
G1 F1200.000
G1 X106.095 Y137.082 E0.00688
G1 X105.422 Y136.883 E0.02197
G1 X104.175 Y136.130 E0.04569
G1 X101.226 Y133.941 E0.11515
G1 X98.517 Y131.484 E0.11469
G1 X96.014 Y128.717 E0.11696
G1 X93.881 Y125.841 E0.11227
G1 X93.117 Y124.579 E0.04625
G1 X92.918 Y123.906 E0.02201
G1 X92.914 Y123.687 E0.00688
G1 X92.795 Y123.484 F10800.000
G1 F1200.000
G1 X92.529 Y123.320 E0.00982
G1 X92.028 Y122.770 E0.02332
G1 X90.413 Y119.368 E0.11806
G1 X89.144 Y115.819 E0.11819
G1 X88.259 Y112.270 E0.11468
G1 X87.728 Y108.671 E0.11407
G1 X87.603 Y106.045 E0.08242
G1 X87.777 Y105.332 E0.02300
G1 X87.883 Y105.145 E0.00675
G1 X87.883 Y104.852 F10800.000
G1 F1200.000
G1 X87.741 Y104.584 E0.00952
G1 X87.607 Y103.996 E0.01889
G1 X87.731 Y101.293 E0.08485
G1 X88.270 Y97.676 E0.11466
G1 X89.160 Y94.129 E0.11466
G1 X90.406 Y90.650 E0.11586
G1 X92.027 Y87.232 E0.11862
G1 X92.528 Y86.682 E0.02331
G1 X92.795 Y86.517 E0.00986
G1 X92.914 Y86.315 F10800.000
G1 F1200.000
G1 X92.918 Y86.097 E0.00685
G1 X93.116 Y85.423 E0.02201
G1 X93.870 Y84.175 E0.04571
G1 X96.061 Y81.227 E0.11517
G1 X98.530 Y78.504 E0.11524
G1 X101.255 Y76.037 E0.11527
G1 X104.190 Y73.861 E0.11457
G1 X105.468 Y73.098 E0.04666
G1 X106.094 Y72.919 E0.02041
G1 X106.314 Y72.915 E0.00689
G1 X106.518 Y72.795 F10800.000
G1 F1200.000
G1 X106.683 Y72.528 E0.00985
G1 X107.232 Y72.029 E0.02326
G1 X110.615 Y70.421 E0.11742
G1 X114.146 Y69.155 E0.11761
G1 X117.657 Y68.275 E0.11349
G1 X121.255 Y67.735 E0.11407
G1 X124.031 Y67.610 E0.08713
G1 X124.687 Y67.785 E0.02130
M73 P1 R50
G1 X124.859 Y67.883 E0.00620
G1 X124.755 Y68.260 F10800.000
G1 F1200.000
G1 X124.987 Y68.402 E0.00852
G1 X125.243 Y68.260 E0.00917
;WIPE_START
G1 F8640.000
G1 X124.987 Y68.402 E-0.06752
G1 X124.755 Y68.260 E-0.06274
;WIPE_END
G1 E-0.66974 F2100.000
G1 Z0.600 F10800.000
G1 X143.211 Y73.076
G1 Z0.200
G1 E0.80000 F2100.000
G1 F1200.000
G1 X143.340 Y73.294 E0.00793
G1 X143.579 Y73.292 E0.00751
;WIPE_START
G1 F8640.000
G1 X143.340 Y73.294 E-0.05529
G1 X143.211 Y73.076 E-0.05840
;WIPE_END
G1 E-0.68631 F2100.000
G1 Z0.600 F10800.000
G1 X156.709 Y86.417
G1 Z0.200
G1 E0.80000 F2100.000
G1 F1200.000
G1 X156.707 Y86.660 E0.00762
G1 X156.929 Y86.791 E0.00807
;WIPE_START
G1 F8640.000
G1 X156.707 Y86.660 E-0.05941
G1 X156.709 Y86.417 E-0.05609
;WIPE_END
G1 E-0.68451 F2100.000
G1 Z0.600 F10800.000
G1 X161.740 Y104.754
G1 Z0.200
G1 E0.80000 F2100.000
G1 F1200.000
G1 X161.598 Y104.988 E0.00858
G1 X161.740 Y105.244 E0.00919
;WIPE_START
G1 F8640.000
G1 X161.598 Y104.988 E-0.06765
G1 X161.740 Y104.754 E-0.06321
;WIPE_END
G1 E-0.66914 F2100.000
G1 Z0.600 F10800.000
G1 X156.929 Y123.210
G1 Z0.200
G1 E0.80000 F2100.000
G1 F1200.000
G1 X156.707 Y123.341 E0.00806
G1 X156.709 Y123.583 E0.00760
;WIPE_START
G1 F8640.000
G1 X156.707 Y123.341 E-0.05596
G1 X156.929 Y123.210 E-0.05936
;WIPE_END
G1 E-0.68468 F2100.000
G1 Z0.600 F10800.000
G1 X143.584 Y136.709
G1 Z0.200
G1 E0.80000 F2100.000
G1 F1200.000
G1 X143.340 Y136.707 E0.00764
G1 X143.208 Y136.930 E0.00812
;WIPE_START
G1 F8640.000
G1 X143.340 Y136.707 E-0.05978
G1 X143.584 Y136.709 E-0.05629
;WIPE_END
G1 E-0.68393 F2100.000
G1 Z0.600 F10800.000
G1 X125.246 Y141.740
G1 Z0.200
G1 E0.80000 F2100.000
