; generated by PrusaSlicer 2.3.3+win64 on 2021-08-25 at 00:58:44 UTC

; 

; external perimeters extrusion width = 0.45mm
; perimeters extrusion width = 0.45mm
; infill extrusion width = 0.45mm
; solid infill extrusion width = 0.45mm
; top infill extrusion width = 0.40mm
; first layer extrusion width = 0.42mm

M73 P0 R75
M73 Q0 S75
M201 X1000 Y1000 Z200 E5000 ; sets maximum accelerations, mm/sec^2
M203 X200 Y200 Z12 E120 ; sets maximum feedrates, mm/sec
M204 P1250 R1250 T1250 ; sets acceleration (P, T) and retract acceleration (R), mm/sec^2
M205 X8.00 Y8.00 Z0.40 E4.50 ; sets the jerk limits, mm/sec
M205 S0 T0 ; sets the minimum extruding and travel feed rate, mm/sec
M107
;TYPE:Custom
M862.3 P "MK3S" ; printer model check
M862.1 P0.4 ; nozzle diameter check
M115 U3.10.0 ; tell printer latest fw version
G90 ; use absolute coordinates
M83 ; extruder relative mode
M104 S215 ; set extruder temp
M140 S60 ; set bed temp
M190 S60 ; wait for bed temp
M109 S215 ; wait for extruder temp
G28 W ; home all without mesh bed level
G80 ; mesh bed leveling
G1 Y-3.0 F1000.0 ; go outside print area
G92 E0.0
G1 X60.0 E9.0 F1000.0 ; intro line
G1 X100.0 E12.5 F1000.0 ; intro line
G92 E0.0
M221 S95

; Don't change E values below. Excessive value can damage the printer.
M907 E430 ; set extruder motor current
G21 ; set units to millimeters
G90 ; use absolute coordinates
M83 ; use relative distances for extrusion
M900 K0.05 ; Filament gcode LA 1.5
M900 K30 ; Filament gcode LA 1.0
;LAYER_CHANGE
;Z:0.2
;HEIGHT:0.2
;BEFORE_LAYER_CHANGE
G92 E0.0
;0.2


G1 E-0.80000 F2100.000
G1 Z0.400 F10800.000
;AFTER_LAYER_CHANGE
;0.2
G1 X99.393 Y83.983
G1 Z0.200
G1 E0.80000 F2100.000
M204 S1000
;TYPE:Skirt
;WIDTH:0.42
G1 F1200.000
G1 X101.576 Y81.574 E0.10191
G1 X103.985 Y79.391 E0.10194
G1 X106.596 Y77.455 E0.10193
G1 X109.383 Y75.785 E0.10184
G1 X112.323 Y74.394 E0.10200
G1 X115.385 Y73.299 E0.10196
G1 X118.539 Y72.509 E0.10193
G1 X121.754 Y72.032 E0.10192
G1 X125.005 Y71.873 E0.10206
G1 X128.248 Y72.033 E0.10181
G1 X131.464 Y72.510 E0.10194
G1 X134.617 Y73.300 E0.10191
G1 X137.679 Y74.395 E0.10196
G1 X140.617 Y75.785 E0.10190
G1 X143.405 Y77.456 E0.10192
G1 X146.017 Y79.393 E0.10196
G1 X148.426 Y81.576 E0.10191
G1 X150.609 Y83.985 E0.10194
G1 X152.545 Y86.596 E0.10193
G1 X154.215 Y89.383 E0.10184
G1 X155.606 Y92.323 E0.10200
G1 X156.701 Y95.385 E0.10196
G1 X157.491 Y98.539 E0.10193
G1 X157.968 Y101.754 E0.10192
G1 X158.127 Y105.001 E0.10194
G1 X157.968 Y108.248 E0.10193
G1 X157.490 Y111.464 E0.10194
G1 X156.700 Y114.617 E0.10191
G1 X155.605 Y117.679 E0.10196
G1 X154.215 Y120.617 E0.10190
G1 X152.544 Y123.405 E0.10192
G1 X150.607 Y126.017 E0.10196
G1 X148.424 Y128.426 E0.10190
G1 X146.015 Y130.609 E0.10194
G1 X143.404 Y132.545 E0.10193
G1 X140.614 Y134.216 E0.10196
G1 X137.677 Y135.606 E0.10188
G1 X134.615 Y136.701 E0.10196
G1 X131.465 Y137.490 E0.10181
G1 X128.246 Y137.968 E0.10204
G1 X124.999 Y138.127 E0.10194
G1 X121.752 Y137.968 E0.10193
G1 X118.536 Y137.490 E0.10194
G1 X115.383 Y136.700 E0.10191
G1 X112.321 Y135.605 E0.10196
G1 X109.383 Y134.215 E0.10190
G1 X106.595 Y132.544 E0.10192
G1 X103.983 Y130.607 E0.10196
G1 X101.574 Y128.424 E0.10191
G1 X99.391 Y126.015 E0.10194
G1 X97.455 Y123.404 E0.10193
G1 X95.784 Y120.614 E0.10196
G1 X94.394 Y117.677 E0.10188
G1 X93.299 Y114.615 E0.10196
G1 X92.509 Y111.461 E0.10193
G1 X92.032 Y108.246 E0.10192
G1 X91.873 Y104.999 E0.10194
G1 X92.033 Y101.752 E0.10193
G1 X92.510 Y98.536 E0.10194
G1 X93.300 Y95.383 E0.10191
G1 X94.395 Y92.321 E0.10196
G1 X95.785 Y89.383 E0.10190
G1 X97.456 Y86.595 E0.10192
G1 X99.358 Y84.031 E0.10008
; printing object knobtest.stl id:0 copy 0
;WIPE_START
G1 F8640.000
G1 X101.564 Y81.588 E-0.76000
;WIPE_END
G1 E-0.04000 F2100.000
G1 Z0.600 F10800.000
G1 X101.839 Y85.992
G1 Z0.200
G1 E0.80000 F2100.000
;TYPE:Perimeter
G1 F1200.000
G1 X103.813 Y83.813 E0.09218
G1 X105.992 Y81.839 E0.09218
G1 X108.354 Y80.087 E0.09220
G1 X110.876 Y78.576 E0.09220
G1 X113.534 Y77.319 E0.09217
G1 X116.303 Y76.328 E0.09222
G1 X119.155 Y75.614 E0.09218
G1 X122.063 Y75.182 E0.09219
G1 X125.000 Y75.038 E0.09219
G1 X127.937 Y75.182 E0.09219
G1 X130.845 Y75.614 E0.09219
G1 X133.697 Y76.328 E0.09218
G1 X136.466 Y77.319 E0.09222
G1 X139.124 Y78.576 E0.09217
G1 X141.646 Y80.087 E0.09220
G1 X144.008 Y81.839 E0.09220
G1 X146.187 Y83.813 E0.09218
G1 X148.161 Y85.992 E0.09218
G1 X149.913 Y88.354 E0.09220
G1 X151.424 Y90.876 E0.09220
G1 X152.681 Y93.534 E0.09217
G1 X153.672 Y96.303 E0.09222
G1 X154.386 Y99.155 E0.09218
G1 X154.818 Y102.063 E0.09219
G1 X154.962 Y105.000 E0.09219
G1 X154.818 Y107.937 E0.09219
G1 X154.386 Y110.845 E0.09219
G1 X153.672 Y113.697 E0.09218
G1 X152.681 Y116.466 E0.09222
G1 X151.424 Y119.124 E0.09217
G1 X149.913 Y121.646 E0.09220
G1 X148.161 Y124.008 E0.09220
G1 X146.187 Y126.187 E0.09218
G1 X144.008 Y128.161 E0.09218
G1 X141.646 Y129.913 E0.09220
G1 X139.124 Y131.424 E0.09220
G1 X136.466 Y132.681 E0.09217
G1 X133.697 Y133.672 E0.09222
G1 X130.845 Y134.386 E0.09218
G1 X127.937 Y134.818 E0.09219
G1 X125.000 Y134.962 E0.09219
G1 X122.063 Y134.818 E0.09219
G1 X119.155 Y134.386 E0.09219
G1 X116.303 Y133.672 E0.09218
G1 X113.534 Y132.681 E0.09222
G1 X110.876 Y131.424 E0.09217
G1 X108.354 Y129.913 E0.09220
G1 X105.992 Y128.161 E0.09220
G1 X103.813 Y126.187 E0.09218
G1 X101.839 Y124.008 E0.09218
G1 X100.087 Y121.646 E0.09220
G1 X98.576 Y119.124 E0.09220
G1 X97.319 Y116.466 E0.09217
G1 X96.328 Y113.697 E0.09222
G1 X95.614 Y110.845 E0.09218
G1 X95.182 Y107.937 E0.09219
G1 X95.038 Y105.000 E0.09219
G1 X95.182 Y102.063 E0.09219
G1 X95.614 Y99.155 E0.09219
G1 X96.328 Y96.303 E0.09218
G1 X97.319 Y93.534 E0.09222
G1 X98.576 Y90.876 E0.09217
G1 X100.087 Y88.354 E0.09220
G1 X101.803 Y86.040 E0.09032
G1 X101.501 Y85.815 F10800.000
;TYPE:External perimeter
G1 F1200.000
G1 X103.546 Y83.546 E0.09579
G1 X105.752 Y81.547 E0.09334
G1 X108.144 Y79.773 E0.09337
G1 X110.698 Y78.243 E0.09337
G1 X113.389 Y76.970 E0.09333
G1 X116.193 Y75.967 E0.09338
G1 X119.081 Y75.244 E0.09335
G1 X122.026 Y74.807 E0.09335
G1 X125.000 Y74.660 E0.09335
G1 X127.974 Y74.807 E0.09335
G1 X130.919 Y75.244 E0.09335
G1 X133.807 Y75.967 E0.09335
G1 X136.611 Y76.970 E0.09338
G1 X139.302 Y78.243 E0.09333
G1 X141.856 Y79.773 E0.09337
G1 X144.248 Y81.547 E0.09337
G1 X146.454 Y83.546 E0.09334
G1 X148.453 Y85.752 E0.09334
G1 X150.227 Y88.144 E0.09337
G1 X151.757 Y90.698 E0.09337
G1 X153.030 Y93.389 E0.09333
G1 X154.033 Y96.193 E0.09338
G1 X154.756 Y99.081 E0.09335
G1 X155.193 Y102.026 E0.09335
G1 X155.340 Y105.000 E0.09335
G1 X155.193 Y107.974 E0.09335
G1 X154.756 Y110.919 E0.09335
G1 X154.033 Y113.807 E0.09335
G1 X153.030 Y116.611 E0.09338
G1 X151.757 Y119.302 E0.09333
G1 X150.227 Y121.856 E0.09337
G1 X148.453 Y124.248 E0.09337
G1 X146.454 Y126.454 E0.09334
G1 X144.248 Y128.453 E0.09334
G1 X141.856 Y130.227 E0.09337
G1 X139.302 Y131.757 E0.09337
G1 X136.611 Y133.030 E0.09333
G1 X133.807 Y134.033 E0.09338
G1 X130.919 Y134.756 E0.09335
G1 X127.974 Y135.193 E0.09335
G1 X125.000 Y135.340 E0.09335
G1 X122.026 Y135.193 E0.09335
G1 X119.081 Y134.756 E0.09335
G1 X116.193 Y134.033 E0.09335
G1 X113.389 Y133.030 E0.09338
G1 X110.698 Y131.757 E0.09333
G1 X108.144 Y130.227 E0.09337
G1 X105.752 Y128.453 E0.09337
G1 X103.546 Y126.454 E0.09334
G1 X101.547 Y124.248 E0.09334
G1 X99.773 Y121.856 E0.09337
G1 X98.243 Y119.302 E0.09337
G1 X96.970 Y116.611 E0.09333
G1 X95.967 Y113.807 E0.09338
G1 X95.244 Y110.919 E0.09335
G1 X94.807 Y107.974 E0.09335
G1 X94.660 Y105.000 E0.09335
G1 X94.807 Y102.026 E0.09335
G1 X95.244 Y99.081 E0.09335
G1 X95.967 Y96.193 E0.09335
G1 X96.970 Y93.389 E0.09338
G1 X98.243 Y90.698 E0.09333
G1 X99.773 Y88.144 E0.09337
G1 X101.465 Y85.864 E0.08902
G1 X101.895 Y85.880 F10800.000
;WIPE_START
G1 F8640.000
G1 X103.546 Y83.546 E-0.71924
G1 X103.677 Y83.428 E-0.04076
;WIPE_END
G1 E-0.04000 F2100.000
G1 Z0.600 F10800.000
G1 X148.179 Y86.206
G1 Z0.200
G1 E0.80000 F2100.000
;TYPE:Solid infill
;WIDTH:0.420999
G1 F1200.000
G1 X145.982 Y84.009 E0.09770
G1 X143.828 Y82.058 E0.09135
G1 X142.541 Y81.103 E0.05039
G1 X148.897 Y87.459 E0.28257
G1 X149.677 Y88.511 E0.04119
G1 X150.070 Y89.167 E0.02404
G1 X140.833 Y79.930 E0.41067
G1 X139.499 Y79.131 E0.04887
G1 X150.869 Y90.501 E0.50549
G1 X151.174 Y91.010 E0.01867
G1 X151.471 Y91.637 E0.02181
G1 X138.363 Y78.529 E0.58277
G1 X137.348 Y78.049 E0.03529
G1 X151.951 Y92.652 E0.64922
M73 P0 R74
G1 X152.427 Y93.662 E0.03510
G1 X136.338 Y77.573 E0.71528
G1 X135.505 Y77.275 E0.02780
G1 X152.725 Y94.495 E0.76555
G1 X153.022 Y95.327 E0.02780
G1 X134.673 Y76.978 E0.81581
M73 P1 R74
M73 Q1 S75
G1 X133.840 Y76.680 E0.02780
G1 X153.320 Y96.160 E0.86608
M73 Q1 S74
G1 X153.401 Y96.385 E0.00751
G1 X153.531 Y96.905 E0.01687
G1 X133.095 Y76.469 E0.90860
G1 X132.381 Y76.290 E0.02312
G1 X153.710 Y97.619 E0.94826
G1 X153.889 Y98.332 E0.02312
G1 X131.668 Y76.111 E0.98791
G1 X130.955 Y75.933 E0.02312
G1 X154.067 Y99.045 E1.02757
G1 X154.180 Y99.693 E0.02067
G1 X130.307 Y75.820 E1.06138
G1 X129.679 Y75.727 E0.01995
G1 X154.273 Y100.321 E1.09344
G1 X154.366 Y100.949 E0.01995
G1 X129.051 Y75.634 E1.12549
G1 X128.423 Y75.540 E0.01995
G1 X154.460 Y101.577 E1.15755
G1 X154.541 Y102.193 E0.01953
G1 X127.807 Y75.459 E1.18855
G1 X127.245 Y75.431 E0.01770
G1 X154.569 Y102.755 E1.21478
G1 X154.596 Y103.317 E0.01770
G1 X126.683 Y75.404 E1.24101
G1 X126.120 Y75.376 E0.01770
G1 X154.624 Y103.880 E1.26723
G1 X154.651 Y104.442 E0.01770
G1 X125.558 Y75.349 E1.29346
G1 X124.996 Y75.321 E0.01769
G1 X154.679 Y105.004 E1.31965
G1 X154.654 Y105.513 E0.01604
G1 X124.487 Y75.346 E1.34120
G1 X123.977 Y75.371 E0.01604
G1 X154.629 Y106.023 E1.36275
G1 X154.604 Y106.533 E0.01604
G1 X123.467 Y75.396 E1.38429
G1 X122.958 Y75.421 E0.01604
G1 X154.579 Y107.042 E1.40584
G1 X154.554 Y107.552 E0.01604
G1 X122.448 Y75.446 E1.42739
G1 X121.952 Y75.485 E0.01565
G1 X154.515 Y108.048 E1.44776
G1 X154.446 Y108.514 E0.01480
G1 X121.486 Y75.554 E1.46539
G1 X121.020 Y75.623 E0.01480
G1 X154.377 Y108.980 E1.48301
M73 P2 R74
M73 Q2 S74
G1 X154.308 Y109.445 E0.01480
G1 X120.555 Y75.692 E1.50064
G1 X120.089 Y75.761 E0.01480
G1 X154.239 Y109.911 E1.51827
G1 X154.170 Y110.376 E0.01480
G1 X119.624 Y75.830 E1.53590
G1 X119.162 Y75.904 E0.01469
G1 X154.096 Y110.838 E1.55315
G1 X153.989 Y111.265 E0.01386
G1 X118.735 Y76.011 E1.56740
M73 P2 R73
G1 X118.307 Y76.118 E0.01386
G1 X153.882 Y111.693 E1.58165
G1 X153.775 Y112.121 E0.01386
G1 X117.879 Y76.225 E1.59590
M73 Q2 S73
G1 X117.452 Y76.332 E0.01386
G1 X153.668 Y112.548 E1.61015
G1 X153.561 Y112.976 E0.01386
G1 X117.024 Y76.439 E1.62440
G1 X116.597 Y76.546 E0.01386
G1 X153.454 Y113.403 E1.63865
G1 X153.330 Y113.814 E0.01348
G1 X116.186 Y76.670 E1.65138
G1 X115.792 Y76.811 E0.01315
G1 X153.189 Y114.208 E1.66262
G1 X153.048 Y114.601 E0.01315
G1 X115.399 Y76.952 E1.67386
G1 X115.005 Y77.093 E0.01315
G1 X152.907 Y114.995 E1.68510
G1 X152.766 Y115.389 E0.01315
G1 X114.611 Y77.234 E1.69635
G1 X114.217 Y77.375 E0.01315
G1 X152.625 Y115.783 E1.70759
G1 X152.484 Y116.177 E0.01315
G1 X113.823 Y77.516 E1.71883
M73 P3 R73
M73 Q3 S73
G1 X113.446 Y77.673 E0.01285
G1 X152.327 Y116.554 E1.72860
G1 X152.155 Y116.917 E0.01262
G1 X113.083 Y77.845 E1.73710
G1 X112.720 Y78.017 E0.01262
G1 X151.983 Y117.280 E1.74560
G1 X151.812 Y117.643 E0.01262
G1 X112.357 Y78.188 E1.75411
G1 X111.994 Y78.360 E0.01262
G1 X151.640 Y118.006 E1.76261
G1 X151.468 Y118.369 E0.01262
G1 X111.631 Y78.532 E1.77112
G1 X111.268 Y78.703 E0.01262
G1 X151.297 Y118.732 E1.77962
G1 X151.117 Y119.086 E0.01250
G1 X110.914 Y78.883 E1.78739
G1 X110.579 Y79.084 E0.01225
G1 X150.916 Y119.421 E1.79335
G1 X150.716 Y119.755 E0.01225
G1 X110.245 Y79.284 E1.79931
M73 P3 R72
G1 X109.911 Y79.484 E0.01225
G1 X150.516 Y120.089 E1.80527
G1 X150.315 Y120.424 E0.01225
M73 Q3 S72
G1 X109.576 Y79.685 E1.81123
G1 X109.242 Y79.885 E0.01225
G1 X150.115 Y120.758 E1.81719
G1 X149.915 Y121.093 E0.01225
G1 X108.907 Y80.085 E1.82315
G1 X108.573 Y80.286 E0.01225
G1 X149.714 Y121.427 E1.82911
G1 X149.492 Y121.739 E0.01205
G1 X108.261 Y80.508 E1.83309
M73 P4 R72
M73 Q4 S72
G1 X107.954 Y80.736 E0.01202
G1 X149.264 Y122.046 E1.83661
G1 X149.036 Y122.353 E0.01202
G1 X107.647 Y80.964 E1.84014
G1 X107.340 Y81.191 E0.01202
G1 X148.809 Y122.660 E1.84366
G1 X148.581 Y122.967 E0.01202
G1 X107.033 Y81.419 E1.84719
G1 X106.726 Y81.647 E0.01202
G1 X148.353 Y123.274 E1.85071
G1 X148.126 Y123.581 E0.01202
G1 X106.419 Y81.874 E1.85424
G1 X106.117 Y82.107 E0.01198
G1 X147.893 Y123.883 E1.85731
G1 X147.639 Y124.163 E0.01190
G1 X105.837 Y82.361 E1.85848
G1 X105.556 Y82.616 E0.01190
G1 X147.384 Y124.444 E1.85965
G1 X147.130 Y124.724 E0.01190
G1 X105.276 Y82.870 E1.86082
G1 X104.995 Y83.124 E0.01190
G1 X146.876 Y125.005 E1.86199
G1 X146.622 Y125.285 E0.01190
G1 X104.715 Y83.378 E1.86316
G1 X104.434 Y83.632 E0.01190
G1 X146.368 Y125.566 E1.86433
G1 X146.114 Y125.846 E0.01190
G1 X104.154 Y83.886 E1.86551
M73 P4 R71
G1 X104.013 Y84.013 E0.00595
G1 X103.886 Y84.154 E0.00595
G1 X145.846 Y126.114 E1.86551
M73 P5 R71
M73 Q5 S72
G1 X145.566 Y126.368 E0.01190
G1 X103.632 Y84.434 E1.86433
M73 Q5 S71
G1 X103.378 Y84.715 E0.01190
G1 X145.285 Y126.622 E1.86316
G1 X145.005 Y126.876 E0.01190
G1 X103.124 Y84.995 E1.86199
G1 X102.870 Y85.276 E0.01190
G1 X144.724 Y127.130 E1.86082
G1 X144.444 Y127.385 E0.01190
G1 X102.615 Y85.556 E1.85965
G1 X102.361 Y85.837 E0.01190
G1 X144.163 Y127.639 E1.85848
G1 X143.883 Y127.893 E0.01190
G1 X102.107 Y86.117 E1.85731
G1 X101.874 Y86.419 E0.01198
G1 X143.581 Y128.126 E1.85424
G1 X143.274 Y128.353 E0.01202
G1 X101.647 Y86.726 E1.85071
G1 X101.419 Y87.033 E0.01202
G1 X142.967 Y128.581 E1.84719
G1 X142.660 Y128.809 E0.01202
G1 X101.191 Y87.340 E1.84366
G1 X100.964 Y87.647 E0.01202
G1 X142.353 Y129.036 E1.84014
G1 X142.046 Y129.264 E0.01202
G1 X100.736 Y87.954 E1.83661
G1 X100.508 Y88.261 E0.01202
G1 X141.739 Y129.492 E1.83309
G1 X141.427 Y129.715 E0.01205
G1 X100.285 Y88.573 E1.82911
M73 P6 R71
M73 Q6 S71
G1 X100.085 Y88.908 E0.01225
G1 X141.092 Y129.915 E1.82315
G1 X140.758 Y130.115 E0.01225
G1 X99.885 Y89.242 E1.81719
G1 X99.685 Y89.576 E0.01225
G1 X140.424 Y130.315 E1.81123
G1 X140.089 Y130.516 E0.01225
G1 X99.484 Y89.911 E1.80527
M73 P6 R70
G1 X99.284 Y90.245 E0.01225
G1 X139.755 Y130.716 E1.79931
G1 X139.421 Y130.916 E0.01225
G1 X99.084 Y90.579 E1.79335
M73 Q6 S70
G1 X98.883 Y90.914 E0.01225
G1 X139.086 Y131.117 E1.78739
G1 X138.731 Y131.297 E0.01251
G1 X98.703 Y91.269 E1.77962
G1 X98.532 Y91.631 E0.01262
G1 X138.369 Y131.468 E1.77111
G1 X138.006 Y131.640 E0.01262
G1 X98.360 Y91.994 E1.76261
G1 X98.188 Y92.357 E0.01262
G1 X137.643 Y131.812 E1.75411
G1 X137.280 Y131.983 E0.01262
G1 X98.017 Y92.720 E1.74560
G1 X97.845 Y93.083 E0.01262
G1 X136.917 Y132.155 E1.73710
G1 X136.554 Y132.327 E0.01262
G1 X97.673 Y93.446 E1.72860
G1 X97.516 Y93.824 E0.01285
G1 X136.176 Y132.484 E1.71883
G1 X135.783 Y132.625 E0.01315
G1 X97.375 Y94.217 E1.70759
M73 P7 R70
M73 Q7 S70
G1 X97.234 Y94.611 E0.01315
G1 X135.389 Y132.766 E1.69634
G1 X134.995 Y132.907 E0.01315
G1 X97.093 Y95.005 E1.68510
G1 X96.952 Y95.399 E0.01315
G1 X134.601 Y133.048 E1.67386
G1 X134.208 Y133.189 E0.01315
G1 X96.811 Y95.792 E1.66262
G1 X96.670 Y96.186 E0.01315
G1 X133.814 Y133.330 E1.65138
G1 X133.403 Y133.454 E0.01348
G1 X96.546 Y96.597 E1.63864
G1 X96.439 Y97.024 E0.01386
G1 X132.976 Y133.561 E1.62439
G1 X132.548 Y133.668 E0.01386
G1 X96.332 Y97.452 E1.61014
G1 X96.225 Y97.880 E0.01386
G1 X132.120 Y133.775 E1.59589
G1 X131.693 Y133.882 E0.01386
G1 X96.118 Y98.307 E1.58164
M73 P7 R69
G1 X96.011 Y98.735 E0.01386
G1 X131.265 Y133.989 E1.56739
G1 X130.838 Y134.096 E0.01386
G1 X95.904 Y99.162 E1.55314
M73 Q7 S69
G1 X95.830 Y99.624 E0.01469
G1 X130.376 Y134.170 E1.53589
G1 X129.911 Y134.239 E0.01480
G1 X95.761 Y100.089 E1.51827
G1 X95.692 Y100.555 E0.01480
G1 X129.445 Y134.308 E1.50064
G1 X128.980 Y134.377 E0.01480
G1 X95.623 Y101.020 E1.48301
G1 X95.554 Y101.486 E0.01480
G1 X128.514 Y134.446 E1.46538
G1 X128.048 Y134.515 E0.01480
G1 X95.485 Y101.952 E1.44775
M73 P8 R69
M73 Q8 S69
G1 X95.446 Y102.448 E0.01565
G1 X127.552 Y134.554 E1.42738
