; generated by PrusaSlicer 2.3.3+win64 on 2021-08-25 at 14:46:09 UTC

; 

; external perimeters extrusion width = 0.45mm
; perimeters extrusion width = 0.45mm
; infill extrusion width = 0.45mm
; solid infill extrusion width = 0.45mm
; top infill extrusion width = 0.40mm
; first layer extrusion width = 0.42mm

M73 P0 R62
M73 Q0 S62
M201 X1000 Y1000 Z200 E5000 ; sets maximum accelerations, mm/sec^2
M203 X200 Y200 Z12 E120 ; sets maximum feedrates, mm/sec
M204 P1250 R1250 T1250 ; sets acceleration (P, T) and retract acceleration (R), mm/sec^2
M205 X8.00 Y8.00 Z0.40 E4.50 ; sets the jerk limits, mm/sec
M205 S0 T0 ; sets the minimum extruding and travel feed rate, mm/sec
M107
;TYPE:Custom
M862.3 P "MK3S" ; printer model check
M862.1 P0.4 ; nozzle diameter check
M115 U3.10.0 ; tell printer latest fw version
G90 ; use absolute coordinates
M83 ; extruder relative mode
M104 S215 ; set extruder temp
M140 S60 ; set bed temp
M190 S60 ; wait for bed temp
M109 S215 ; wait for extruder temp
G28 W ; home all without mesh bed level
G80 ; mesh bed leveling
G1 Y-3.0 F1000.0 ; go outside print area
G92 E0.0
G1 X60.0 E9.0 F1000.0 ; intro line
G1 X100.0 E12.5 F1000.0 ; intro line
G92 E0.0
M221 S95

; Don't change E values below. Excessive value can damage the printer.
M907 E430 ; set extruder motor current
G21 ; set units to millimeters
G90 ; use absolute coordinates
M83 ; use relative distances for extrusion
M900 K0.05 ; Filament gcode LA 1.5
M900 K30 ; Filament gcode LA 1.0
;LAYER_CHANGE
;Z:0.2
;HEIGHT:0.2
;BEFORE_LAYER_CHANGE
G92 E0.0
;0.2


G1 E-0.80000 F2100.000
G1 Z0.400 F10800.000
;AFTER_LAYER_CHANGE
;0.2
G1 X96.108 Y81.287
G1 Z0.200
G1 E0.80000 F2100.000
M204 S1000
;TYPE:Skirt
;WIDTH:0.42
G1 F1200.000
G1 X98.571 Y78.569 E0.11499
G1 X101.289 Y76.106 E0.11502
G1 X104.236 Y73.922 E0.11500
G1 X107.382 Y72.036 E0.11500
G1 X110.697 Y70.467 E0.11501
G1 X114.151 Y69.232 E0.11502
G1 X117.710 Y68.341 E0.11502
G1 X121.337 Y67.803 E0.11498
G1 X125.005 Y67.623 E0.11513
G1 X128.666 Y67.804 E0.11492
G1 X132.293 Y68.342 E0.11498
G1 X135.851 Y69.233 E0.11499
G1 X139.305 Y70.468 E0.11502
G1 X142.621 Y72.037 E0.11503
G1 X145.767 Y73.923 E0.11500
G1 X148.713 Y76.108 E0.11500
G1 X151.431 Y78.571 E0.11499
G1 X153.894 Y81.289 E0.11502
G1 X156.078 Y84.236 E0.11500
G1 X157.964 Y87.382 E0.11500
G1 X159.533 Y90.697 E0.11501
M73 P0 R61
G1 X160.768 Y94.151 E0.11502
G1 X161.659 Y97.710 E0.11502
G1 X162.197 Y101.337 E0.11498
G1 X162.377 Y105.001 E0.11501
G1 X162.196 Y108.666 E0.11504
G1 X161.658 Y112.293 E0.11498
G1 X160.767 Y115.851 E0.11499
G1 X159.532 Y119.305 E0.11502
G1 X157.963 Y122.621 E0.11503
G1 X156.077 Y125.767 E0.11501
G1 X153.892 Y128.713 E0.11500
G1 X151.429 Y131.431 E0.11499
G1 X148.711 Y133.894 E0.11502
G1 X145.764 Y136.078 E0.11500
G1 X142.618 Y137.964 E0.11500
G1 X139.303 Y139.533 E0.11501
G1 X135.849 Y140.768 E0.11502
G1 X132.290 Y141.659 E0.11502
G1 X128.663 Y142.197 E0.11498
G1 X124.999 Y142.377 E0.11501
G1 X121.334 Y142.196 E0.11504
G1 X117.707 Y141.658 E0.11498
G1 X114.149 Y140.767 E0.11499
M73 Q0 S61
G1 X110.695 Y139.532 E0.11502
G1 X107.379 Y137.963 E0.11503
G1 X104.233 Y136.077 E0.11500
G1 X101.287 Y133.892 E0.11500
G1 X98.569 Y131.429 E0.11499
G1 X96.106 Y128.711 E0.11502
G1 X93.922 Y125.764 E0.11500
G1 X92.036 Y122.618 E0.11500
G1 X90.467 Y119.303 E0.11501
G1 X89.232 Y115.849 E0.11502
G1 X88.341 Y112.290 E0.11502
G1 X87.803 Y108.663 E0.11498
G1 X87.623 Y104.999 E0.11501
G1 X87.804 Y101.334 E0.11504
G1 X88.342 Y97.707 E0.11498
G1 X89.233 Y94.149 E0.11499
G1 X90.468 Y90.695 E0.11502
G1 X92.037 Y87.379 E0.11503
G1 X93.923 Y84.233 E0.11500
G1 X96.073 Y81.335 E0.11312
; printing object knobtest_70.stl id:0 copy 0
;WIPE_START
G1 F8640.000
G1 X98.279 Y78.893 E-0.76000
;WIPE_END
G1 E-0.04000 F2100.000
G1 Z0.600 F10800.000
G1 X98.554 Y83.296
G1 Z0.200
G1 E0.80000 F2100.000
;TYPE:Perimeter
G1 F1200.000
G1 X100.808 Y80.808 E0.10525
G1 X103.296 Y78.554 E0.10525
G1 X105.993 Y76.554 E0.10528
G1 X108.873 Y74.828 E0.10527
G1 X111.908 Y73.392 E0.10528
G1 X115.069 Y72.261 E0.10527
G1 X118.326 Y71.446 E0.10527
G1 X121.646 Y70.953 E0.10526
G1 X125.000 Y70.788 E0.10528
G1 X128.354 Y70.953 E0.10528
G1 X131.674 Y71.446 E0.10526
G1 X134.931 Y72.261 E0.10527
G1 X138.092 Y73.392 E0.10527
G1 X141.127 Y74.828 E0.10528
G1 X144.007 Y76.554 E0.10527
G1 X146.704 Y78.554 E0.10528
G1 X149.192 Y80.808 E0.10525
G1 X151.446 Y83.296 E0.10525
G1 X153.446 Y85.993 E0.10528
G1 X155.172 Y88.873 E0.10527
G1 X156.608 Y91.908 E0.10527
G1 X157.739 Y95.069 E0.10527
G1 X158.554 Y98.326 E0.10527
G1 X159.047 Y101.646 E0.10526
G1 X159.212 Y105.000 E0.10528
G1 X159.047 Y108.354 E0.10528
G1 X158.554 Y111.674 E0.10526
G1 X157.739 Y114.931 E0.10527
G1 X156.608 Y118.092 E0.10527
G1 X155.172 Y121.127 E0.10527
G1 X153.446 Y124.007 E0.10527
G1 X151.446 Y126.704 E0.10528
G1 X149.192 Y129.192 E0.10525
G1 X146.704 Y131.446 E0.10525
G1 X144.007 Y133.446 E0.10528
G1 X141.127 Y135.172 E0.10527
G1 X138.092 Y136.608 E0.10528
G1 X134.931 Y137.739 E0.10527
G1 X131.674 Y138.554 E0.10527
G1 X128.354 Y139.047 E0.10526
G1 X125.000 Y139.212 E0.10528
G1 X121.646 Y139.047 E0.10528
G1 X118.326 Y138.554 E0.10526
G1 X115.069 Y137.739 E0.10527
G1 X111.908 Y136.608 E0.10527
G1 X108.873 Y135.172 E0.10528
G1 X105.993 Y133.446 E0.10527
G1 X103.296 Y131.446 E0.10528
G1 X100.808 Y129.192 E0.10525
G1 X98.554 Y126.704 E0.10525
G1 X96.554 Y124.007 E0.10527
G1 X94.828 Y121.127 E0.10527
G1 X93.392 Y118.092 E0.10527
G1 X92.261 Y114.931 E0.10527
G1 X91.446 Y111.674 E0.10527
G1 X90.953 Y108.354 E0.10526
G1 X90.788 Y105.000 E0.10528
G1 X90.953 Y101.646 E0.10528
G1 X91.446 Y98.326 E0.10526
G1 X92.261 Y95.069 E0.10527
G1 X93.392 Y91.908 E0.10527
G1 X94.828 Y88.873 E0.10528
G1 X96.554 Y85.993 E0.10527
G1 X98.518 Y83.344 E0.10339
G1 X98.216 Y83.119 F10800.000
;TYPE:External perimeter
G1 F1200.000
G1 X100.541 Y80.541 E0.10887
G1 X103.056 Y78.262 E0.10642
G1 X105.783 Y76.240 E0.10644
G1 X108.695 Y74.495 E0.10643
G1 X111.763 Y73.043 E0.10644
G1 X114.959 Y71.900 E0.10643
G1 X118.252 Y71.076 E0.10643
G1 X121.609 Y70.578 E0.10642
G1 X125.000 Y70.410 E0.10644
G1 X128.391 Y70.578 E0.10644
G1 X131.748 Y71.076 E0.10642
G1 X135.041 Y71.900 E0.10643
G1 X138.237 Y73.043 E0.10643
G1 X141.305 Y74.495 E0.10644
G1 X144.217 Y76.240 E0.10643
G1 X146.944 Y78.262 E0.10644
G1 X149.459 Y80.541 E0.10642
G1 X151.738 Y83.056 E0.10642
G1 X153.760 Y85.783 E0.10644
G1 X155.505 Y88.695 E0.10643
G1 X156.957 Y91.763 E0.10644
G1 X158.100 Y94.959 E0.10643
G1 X158.924 Y98.252 E0.10643
G1 X159.422 Y101.609 E0.10642
G1 X159.590 Y105.000 E0.10644
G1 X159.422 Y108.391 E0.10644
G1 X158.924 Y111.748 E0.10642
G1 X158.100 Y115.041 E0.10643
G1 X156.957 Y118.237 E0.10643
G1 X155.505 Y121.305 E0.10644
G1 X153.760 Y124.217 E0.10643
G1 X151.738 Y126.944 E0.10644
G1 X149.459 Y129.459 E0.10642
G1 X146.944 Y131.738 E0.10642
G1 X144.217 Y133.760 E0.10644
G1 X141.305 Y135.505 E0.10643
G1 X138.237 Y136.957 E0.10644
G1 X135.041 Y138.100 E0.10643
G1 X131.748 Y138.924 E0.10643
G1 X128.391 Y139.422 E0.10642
M73 Q1 S61
G1 X125.000 Y139.590 E0.10644
G1 X121.609 Y139.422 E0.10644
M73 P1 R61
G1 X118.252 Y138.924 E0.10642
G1 X114.959 Y138.100 E0.10643
G1 X111.763 Y136.957 E0.10643
G1 X108.695 Y135.505 E0.10644
G1 X105.783 Y133.760 E0.10643
G1 X103.056 Y131.738 E0.10644
G1 X100.541 Y129.459 E0.10642
G1 X98.262 Y126.944 E0.10642
G1 X96.240 Y124.217 E0.10644
G1 X94.495 Y121.305 E0.10643
G1 X93.043 Y118.237 E0.10644
G1 X91.900 Y115.041 E0.10643
G1 X91.076 Y111.748 E0.10643
G1 X90.578 Y108.391 E0.10642
G1 X90.410 Y105.000 E0.10644
G1 X90.578 Y101.609 E0.10644
G1 X91.076 Y98.252 E0.10642
G1 X91.900 Y94.959 E0.10643
G1 X93.043 Y91.763 E0.10643
G1 X94.495 Y88.695 E0.10644
G1 X96.240 Y85.783 E0.10643
G1 X98.180 Y83.168 E0.10209
G1 X98.610 Y83.184 F10800.000
;WIPE_START
G1 F8640.000
G1 X100.380 Y80.720 E-0.76000
;WIPE_END
G1 E-0.04000 F2100.000
G1 Z0.600 F10800.000
G1 X146.599 Y78.617
G1 Z0.200
G1 E0.80000 F2100.000
;TYPE:Solid infill
;WIDTH:0.422008
G1 F1200.000
G1 X149.003 Y81.021 E0.10716
G1 X151.227 Y83.475 E0.10441
G1 X152.104 Y84.658 E0.04641
G1 X145.342 Y77.896 E0.30143
G1 X143.850 Y76.790 E0.05855
G1 X143.474 Y76.564 E0.01381
G1 X153.436 Y86.526 E0.44406
G1 X154.238 Y87.864 E0.04919
G1 X142.136 Y75.762 E0.53950
G1 X140.994 Y75.078 E0.04196
G1 X140.844 Y75.007 E0.00522
G1 X154.993 Y89.156 E0.63072
G1 X155.475 Y90.173 E0.03548
G1 X139.827 Y74.525 E0.69754
G1 X138.809 Y74.044 E0.03548
G1 X155.956 Y91.191 E0.76436
G1 X156.346 Y92.016 E0.02878
G1 X156.403 Y92.174 E0.00528
G1 X137.826 Y73.597 E0.82810
G1 X136.992 Y73.299 E0.02795
G1 X156.701 Y93.008 E0.87862
G1 X157.000 Y93.843 E0.02795
G1 X136.157 Y73.000 E0.92914
G1 X135.322 Y72.701 E0.02795
G1 X157.299 Y94.678 E0.97967
G1 X157.468 Y95.151 E0.01583
G1 X157.545 Y95.461 E0.01007
G1 X134.539 Y72.455 E1.02557
G1 X133.824 Y72.276 E0.02324
G1 X157.724 Y96.176 E1.06543
G1 X157.903 Y96.891 E0.02324
G1 X133.109 Y72.097 E1.10528
G1 X132.394 Y71.918 E0.02324
G1 X158.082 Y97.606 E1.14514
G1 X158.261 Y98.321 E0.02324
G1 X131.679 Y71.739 E1.18500
G1 X131.042 Y71.638 E0.02032
G1 X158.362 Y98.958 E1.21786
G1 X158.455 Y99.587 E0.02006
G1 X130.413 Y71.545 E1.25008
G1 X129.783 Y71.451 E0.02006
G1 X158.549 Y100.217 E1.28231
G1 X158.642 Y100.846 E0.02006
G1 X129.154 Y71.358 E1.31454
M73 P1 R60
G1 X128.524 Y71.264 E0.02006
G1 X158.736 Y101.476 E1.34676
G1 X158.765 Y101.674 E0.00632
G1 X158.784 Y102.060 E0.01219
G1 X127.940 Y71.216 E1.37498
M73 P2 R60
M73 Q2 S60
G1 X127.376 Y71.188 E0.01780
G1 X158.812 Y102.624 E1.40135
G1 X158.840 Y103.188 E0.01780
G1 X126.812 Y71.160 E1.42773
G1 X126.248 Y71.133 E0.01780
G1 X158.867 Y103.752 E1.45410
G1 X158.895 Y104.316 E0.01780
G1 X125.684 Y71.105 E1.48048
G1 X125.120 Y71.077 E0.01780
G1 X158.923 Y104.880 E1.50685
G1 X158.909 Y105.402 E0.01647
G1 X124.598 Y71.091 E1.52951
G1 X124.087 Y71.116 E0.01613
G1 X158.884 Y105.913 E1.55117
G1 X158.859 Y106.424 E0.01613
G1 X123.576 Y71.141 E1.57282
G1 X123.065 Y71.166 E0.01613
G1 X158.834 Y106.935 E1.59448
G1 X158.808 Y107.446 E0.01613
G1 X122.554 Y71.192 E1.61613
G1 X122.043 Y71.217 E0.01613
G1 X158.783 Y107.957 E1.63779
G1 X158.746 Y108.455 E0.01576
G1 X121.545 Y71.254 E1.65835
G1 X121.078 Y71.323 E0.01488
G1 X158.677 Y108.922 E1.67608
G1 X158.607 Y109.389 E0.01488
G1 X120.611 Y71.393 E1.69380
G1 X120.144 Y71.462 E0.01488
G1 X158.538 Y109.856 E1.71152
M73 P3 R60
M73 Q3 S60
G1 X158.469 Y110.323 E0.01488
G1 X119.677 Y71.531 E1.72925
G1 X119.210 Y71.601 E0.01488
G1 X158.399 Y110.790 E1.74697
G1 X158.330 Y111.257 E0.01488
G1 X118.743 Y71.670 E1.76469
G1 X118.285 Y71.748 E0.01465
G1 X158.252 Y111.715 E1.78166
G1 X158.145 Y112.144 E0.01393
G1 X117.856 Y71.855 E1.79599
G1 X117.428 Y71.962 E0.01393
G1 X158.038 Y112.572 E1.81032
G1 X157.930 Y113.001 E0.01393
G1 X116.999 Y72.070 E1.82465
M73 P3 R59
G1 X116.570 Y72.177 E0.01393
G1 X157.823 Y113.430 E1.83898
M73 Q3 S59
G1 X157.716 Y113.859 E0.01393
G1 X116.141 Y72.284 E1.85331
G1 X115.712 Y72.392 E0.01393
G1 X157.608 Y114.288 E1.86764
G1 X157.501 Y114.716 E0.01393
G1 X115.284 Y72.499 E1.88197
G1 X114.878 Y72.630 E0.01343
G1 X157.370 Y115.122 E1.89421
M73 P4 R59
M73 Q4 S59
G1 X157.229 Y115.517 E0.01322
G1 X114.483 Y72.771 E1.90551
G1 X114.089 Y72.912 E0.01322
G1 X157.088 Y115.911 E1.91682
G1 X156.947 Y116.306 E0.01322
G1 X113.694 Y73.053 E1.92812
G1 X113.299 Y73.195 E0.01322
G1 X156.805 Y116.701 E1.93943
G1 X156.664 Y117.096 E0.01322
G1 X112.904 Y73.336 E1.95073
G1 X112.509 Y73.477 E0.01322
G1 X156.523 Y117.491 E1.96204
G1 X156.382 Y117.886 E0.01322
G1 X112.114 Y73.618 E1.97334
G1 X111.743 Y73.783 E0.01281
G1 X156.217 Y118.257 E1.98257
G1 X156.045 Y118.621 E0.01269
G1 X111.379 Y73.955 E1.99112
G1 X111.015 Y74.127 E0.01269
G1 X155.873 Y118.985 E1.99967
G1 X155.701 Y119.349 E0.01269
G1 X110.651 Y74.299 E2.00822
G1 X110.287 Y74.472 E0.01269
G1 X155.528 Y119.713 E2.01677
M73 P5 R59
M73 Q5 S59
G1 X155.356 Y120.077 E0.01269
G1 X109.923 Y74.644 E2.02531
G1 X109.559 Y74.816 E0.01269
G1 X155.184 Y120.441 E2.03386
M73 P5 R58
G1 X155.012 Y120.805 E0.01269
G1 X109.195 Y74.988 E2.04241
M73 Q5 S58
G1 X108.845 Y75.174 E0.01250
G1 X154.826 Y121.155 E2.04973
G1 X154.625 Y121.490 E0.01232
G1 X108.510 Y75.375 E2.05571
G1 X108.175 Y75.576 E0.01232
G1 X154.424 Y121.825 E2.06170
G1 X154.223 Y122.161 E0.01232
G1 X107.839 Y75.777 E2.06768
G1 X107.504 Y75.978 E0.01232
G1 X154.022 Y122.496 E2.07367
G1 X153.821 Y122.831 E0.01232
G1 X107.169 Y76.179 E2.07965
G1 X106.834 Y76.380 E0.01232
G1 X153.620 Y123.166 E2.08564
G1 X153.419 Y123.501 E0.01232
G1 X106.499 Y76.581 E2.09162
M73 P6 R58
M73 Q6 S58
G1 X106.164 Y76.782 E0.01232
G1 X153.218 Y123.836 E2.09761
G1 X152.991 Y124.145 E0.01209
G1 X105.855 Y77.009 E2.10125
G1 X105.547 Y77.237 E0.01208
G1 X152.763 Y124.453 E2.10480
G1 X152.535 Y124.761 E0.01208
G1 X105.239 Y77.465 E2.10834
G1 X104.931 Y77.694 E0.01208
G1 X152.306 Y125.069 E2.11189
G1 X152.078 Y125.377 E0.01208
G1 X104.623 Y77.922 E2.11543
G1 X104.315 Y78.150 E0.01208
G1 X151.850 Y125.685 E2.11898
G1 X151.622 Y125.992 E0.01208
G1 X104.008 Y78.378 E2.12253
G1 X103.700 Y78.607 E0.01208
G1 X151.393 Y126.300 E2.12607
M73 P6 R57
G1 X151.158 Y126.601 E0.01204
G1 X103.399 Y78.842 E2.12898
M73 Q6 S57
G1 X103.118 Y79.097 E0.01196
G1 X150.903 Y126.882 E2.13015
M73 P7 R57
M73 Q7 S57
G1 X150.648 Y127.163 E0.01196
G1 X102.837 Y79.352 E2.13133
G1 X102.555 Y79.607 E0.01196
G1 X150.393 Y127.445 E2.13251
G1 X150.138 Y127.726 E0.01196
G1 X102.274 Y79.862 E2.13369
G1 X101.993 Y80.116 E0.01196
G1 X149.884 Y128.007 E2.13486
G1 X149.629 Y128.288 E0.01196
G1 X101.712 Y80.371 E2.13604
G1 X101.430 Y80.626 E0.01196
G1 X149.374 Y128.570 E2.13722
G1 X149.119 Y128.851 E0.01196
G1 X101.149 Y80.881 E2.13840
G1 X100.881 Y81.149 E0.01195
G1 X148.851 Y129.119 E2.13840
G1 X148.570 Y129.374 E0.01196
G1 X100.626 Y81.430 E2.13722
G1 X100.371 Y81.712 E0.01196
G1 X148.288 Y129.629 E2.13604
G1 X148.007 Y129.884 E0.01196
G1 X100.116 Y81.993 E2.13486
M73 P8 R57
M73 Q8 S57
G1 X99.862 Y82.274 E0.01196
G1 X147.726 Y130.138 E2.13369
G1 X147.445 Y130.393 E0.01196
G1 X99.607 Y82.555 E2.13251
G1 X99.352 Y82.837 E0.01196
G1 X147.163 Y130.648 E2.13133
G1 X146.882 Y130.903 E0.01196
G1 X99.097 Y83.118 E2.13015
G1 X98.842 Y83.399 E0.01196
G1 X146.601 Y131.158 E2.12898
M73 P8 R56
G1 X146.300 Y131.393 E0.01204
G1 X98.607 Y83.700 E2.12607
M73 Q8 S56
G1 X98.378 Y84.008 E0.01208
G1 X145.992 Y131.622 E2.12253
G1 X145.685 Y131.850 E0.01208
G1 X98.150 Y84.315 E2.11898
G1 X97.922 Y84.623 E0.01208
G1 X145.377 Y132.078 E2.11543
G1 X145.069 Y132.306 E0.01208
G1 X97.694 Y84.931 E2.11189
G1 X97.465 Y85.239 E0.01208
G1 X144.761 Y132.535 E2.10834
M73 P9 R56
M73 Q9 S56
G1 X144.453 Y132.763 E0.01208
G1 X97.237 Y85.547 E2.10480
G1 X97.009 Y85.855 E0.01208
G1 X144.145 Y132.991 E2.10125
G1 X143.836 Y133.218 E0.01209
G1 X96.782 Y86.164 E2.09760
G1 X96.581 Y86.499 E0.01232
G1 X143.501 Y133.419 E2.09162
G1 X143.166 Y133.620 E0.01232
G1 X96.380 Y86.834 E2.08564
G1 X96.179 Y87.169 E0.01232
G1 X142.831 Y133.821 E2.07965
G1 X142.496 Y134.022 E0.01232
G1 X95.978 Y87.504 E2.07367
G1 X95.777 Y87.839 E0.01232
G1 X142.161 Y134.223 E2.06768
G1 X141.825 Y134.424 E0.01232
G1 X95.576 Y88.175 E2.06170
G1 X95.375 Y88.510 E0.01232
G1 X141.490 Y134.625 E2.05571
G1 X141.155 Y134.826 E0.01232
G1 X95.174 Y88.845 E2.04973
M73 P10 R55
M73 Q10 S56
G1 X94.988 Y89.195 E0.01250
G1 X140.805 Y135.012 E2.04241
G1 X140.441 Y135.184 E0.01269
G1 X94.816 Y89.559 E2.03386
M73 Q10 S55
G1 X94.644 Y89.923 E0.01269
G1 X140.077 Y135.356 E2.02531
G1 X139.713 Y135.528 E0.01269
G1 X94.472 Y90.287 E2.01677
G1 X94.299 Y90.651 E0.01269
G1 X139.349 Y135.701 E2.00822
G1 X138.985 Y135.873 E0.01269
G1 X94.127 Y91.015 E1.99967
G1 X93.955 Y91.379 E0.01269
G1 X138.621 Y136.045 E1.99112
G1 X138.257 Y136.217 E0.01269
G1 X93.783 Y91.743 E1.98257
G1 X93.618 Y92.114 E0.01281
G1 X137.886 Y136.382 E1.97334
G1 X137.491 Y136.523 E0.01322
G1 X93.477 Y92.509 E1.96203
G1 X93.336 Y92.904 E0.01322
G1 X137.096 Y136.664 E1.95073
G1 X136.701 Y136.805 E0.01322
G1 X93.195 Y93.299 E1.93943
M73 P11 R55
M73 Q11 S55
G1 X93.053 Y93.694 E0.01322
G1 X136.306 Y136.947 E1.92812
G1 X135.911 Y137.088 E0.01322
