; generated by PrusaSlicer 2.3.3+win64 on 2021-08-25 at 04:28:07 UTC

; 

; external perimeters extrusion width = 0.45mm
; perimeters extrusion width = 0.45mm
; infill extrusion width = 0.45mm
; solid infill extrusion width = 0.45mm
; top infill extrusion width = 0.40mm
; first layer extrusion width = 0.42mm

M73 P0 R76
M73 Q0 S76
M201 X1000 Y1000 Z200 E5000 ; sets maximum accelerations, mm/sec^2
M203 X200 Y200 Z12 E120 ; sets maximum feedrates, mm/sec
M204 P1250 R1250 T1250 ; sets acceleration (P, T) and retract acceleration (R), mm/sec^2
M205 X8.00 Y8.00 Z0.40 E4.50 ; sets the jerk limits, mm/sec
M205 S0 T0 ; sets the minimum extruding and travel feed rate, mm/sec
M107
;TYPE:Custom
M862.3 P "MK3S" ; printer model check
M862.1 P0.4 ; nozzle diameter check
M115 U3.10.0 ; tell printer latest fw version
G90 ; use absolute coordinates
M83 ; extruder relative mode
M104 S215 ; set extruder temp
M140 S60 ; set bed temp
M190 S60 ; wait for bed temp
M109 S215 ; wait for extruder temp
G28 W ; home all without mesh bed level
G80 ; mesh bed leveling
G1 Y-3.0 F1000.0 ; go outside print area
G92 E0.0
G1 X60.0 E9.0 F1000.0 ; intro line
G1 X100.0 E12.5 F1000.0 ; intro line
G92 E0.0
M221 S95

; Don't change E values below. Excessive value can damage the printer.
M907 E430 ; set extruder motor current
G21 ; set units to millimeters
G90 ; use absolute coordinates
M83 ; use relative distances for extrusion
M900 K0.05 ; Filament gcode LA 1.5
M900 K30 ; Filament gcode LA 1.0
;LAYER_CHANGE
;Z:0.2
;HEIGHT:0.2
;BEFORE_LAYER_CHANGE
G92 E0.0
;0.2


G1 E-0.80000 F2100.000
G1 Z0.400 F10800.000
;AFTER_LAYER_CHANGE
;0.2
G1 X99.200 Y83.824
G1 Z0.200
G1 E0.80000 F2100.000
M204 S1000
;TYPE:Skirt
;WIDTH:0.42
G1 F1200.000
G1 X101.399 Y81.398 E0.10267
G1 X103.827 Y79.198 E0.10271
G1 X106.458 Y77.247 E0.10270
G1 X109.268 Y75.563 E0.10273
G1 X112.228 Y74.163 E0.10265
G1 X115.313 Y73.060 E0.10273
G1 X118.490 Y72.264 E0.10270
G1 X121.730 Y71.783 E0.10269
G1 X125.005 Y71.623 E0.10283
G1 X128.273 Y71.784 E0.10258
G1 X131.513 Y72.265 E0.10271
G1 X134.690 Y73.060 E0.10268
G1 X137.775 Y74.164 E0.10273
G1 X140.735 Y75.565 E0.10267
G1 X143.544 Y77.248 E0.10269
G1 X146.176 Y79.200 E0.10273
G1 X148.602 Y81.399 E0.10267
G1 X150.802 Y83.827 E0.10271
G1 X152.753 Y86.458 E0.10270
G1 X154.437 Y89.268 E0.10273
G1 X155.837 Y92.228 E0.10265
G1 X156.940 Y95.313 E0.10273
G1 X157.736 Y98.490 E0.10270
G1 X158.217 Y101.730 E0.10269
G1 X158.377 Y105.001 E0.10271
G1 X158.216 Y108.273 E0.10270
G1 X157.735 Y111.513 E0.10271
G1 X156.940 Y114.690 E0.10268
G1 X155.836 Y117.775 E0.10273
G1 X154.435 Y120.735 E0.10267
G1 X152.752 Y123.544 E0.10269
G1 X150.800 Y126.176 E0.10273
G1 X148.601 Y128.602 E0.10267
G1 X146.173 Y130.802 E0.10271
G1 X143.542 Y132.753 E0.10270
G1 X140.732 Y134.437 E0.10273
G1 X137.772 Y135.837 E0.10265
G1 X134.687 Y136.940 E0.10273
G1 X131.510 Y137.736 E0.10270
G1 X128.270 Y138.217 E0.10269
G1 X124.999 Y138.377 E0.10271
G1 X121.727 Y138.216 E0.10270
G1 X118.487 Y137.735 E0.10271
G1 X115.310 Y136.940 E0.10268
G1 X112.225 Y135.836 E0.10273
G1 X109.265 Y134.435 E0.10267
G1 X106.456 Y132.752 E0.10269
G1 X103.824 Y130.800 E0.10273
G1 X101.398 Y128.601 E0.10267
G1 X99.198 Y126.173 E0.10271
G1 X97.247 Y123.542 E0.10270
G1 X95.563 Y120.732 E0.10273
G1 X94.163 Y117.772 E0.10265
G1 X93.060 Y114.687 E0.10273
G1 X92.264 Y111.510 E0.10270
G1 X91.783 Y108.270 E0.10269
G1 X91.623 Y104.999 E0.10271
G1 X91.784 Y101.727 E0.10270
G1 X92.265 Y98.487 E0.10271
G1 X93.060 Y95.310 E0.10268
G1 X94.164 Y92.225 E0.10273
G1 X95.565 Y89.265 E0.10267
G1 X97.248 Y86.456 E0.10269
G1 X99.164 Y83.872 E0.10085
; printing object knobtest_62.stl id:0 copy 0
;WIPE_START
G1 F8640.000
G1 X101.370 Y81.429 E-0.76000
;WIPE_END
G1 E-0.04000 F2100.000
G1 Z0.600 F10800.000
G1 X101.646 Y85.833
G1 Z0.200
G1 E0.80000 F2100.000
;TYPE:Perimeter
G1 F1200.000
G1 X103.636 Y83.636 E0.09295
G1 X105.833 Y81.646 E0.09295
G1 X108.215 Y79.879 E0.09297
G1 X110.759 Y78.356 E0.09297
G1 X113.438 Y77.088 E0.09293
G1 X116.230 Y76.089 E0.09299
G1 X119.106 Y75.369 E0.09295
G1 X122.039 Y74.933 E0.09296
G1 X125.000 Y74.788 E0.09296
G1 X127.961 Y74.933 E0.09296
G1 X130.894 Y75.369 E0.09296
G1 X133.770 Y76.089 E0.09295
G1 X136.562 Y77.088 E0.09299
G1 X139.241 Y78.356 E0.09293
G1 X141.785 Y79.879 E0.09297
G1 X144.167 Y81.646 E0.09297
G1 X146.364 Y83.636 E0.09295
G1 X148.354 Y85.833 E0.09295
G1 X150.121 Y88.215 E0.09297
G1 X151.644 Y90.759 E0.09297
G1 X152.912 Y93.438 E0.09293
G1 X153.911 Y96.230 E0.09299
G1 X154.631 Y99.106 E0.09295
G1 X155.067 Y102.039 E0.09296
G1 X155.212 Y105.000 E0.09296
G1 X155.067 Y107.961 E0.09296
G1 X154.631 Y110.894 E0.09296
G1 X153.911 Y113.770 E0.09295
G1 X152.912 Y116.562 E0.09299
G1 X151.644 Y119.241 E0.09293
G1 X150.121 Y121.785 E0.09297
G1 X148.354 Y124.167 E0.09297
G1 X146.364 Y126.364 E0.09295
G1 X144.167 Y128.354 E0.09295
G1 X141.785 Y130.121 E0.09297
G1 X139.241 Y131.644 E0.09297
G1 X136.562 Y132.912 E0.09293
G1 X133.770 Y133.911 E0.09299
G1 X130.894 Y134.631 E0.09295
G1 X127.961 Y135.067 E0.09296
G1 X125.000 Y135.212 E0.09296
G1 X122.039 Y135.067 E0.09296
G1 X119.106 Y134.631 E0.09296
G1 X116.230 Y133.911 E0.09295
G1 X113.438 Y132.912 E0.09299
G1 X110.759 Y131.644 E0.09293
G1 X108.215 Y130.121 E0.09297
G1 X105.833 Y128.354 E0.09297
G1 X103.636 Y126.364 E0.09295
G1 X101.646 Y124.167 E0.09295
G1 X99.879 Y121.785 E0.09297
G1 X98.356 Y119.241 E0.09297
G1 X97.088 Y116.562 E0.09293
G1 X96.089 Y113.770 E0.09299
G1 X95.369 Y110.894 E0.09295
G1 X94.933 Y107.961 E0.09296
G1 X94.788 Y105.000 E0.09296
G1 X94.933 Y102.039 E0.09296
G1 X95.369 Y99.106 E0.09296
G1 X96.089 Y96.230 E0.09295
G1 X97.088 Y93.438 E0.09299
G1 X98.356 Y90.759 E0.09293
G1 X99.879 Y88.215 E0.09297
G1 X101.610 Y85.881 E0.09109
G1 X101.307 Y85.657 F10800.000
;TYPE:External perimeter
G1 F1200.000
G1 X103.369 Y83.369 E0.09656
G1 X105.594 Y81.354 E0.09411
G1 X108.005 Y79.565 E0.09413
G1 X110.581 Y78.023 E0.09413
G1 X113.293 Y76.739 E0.09409
G1 X116.121 Y75.728 E0.09415
G1 X119.032 Y74.998 E0.09411
G1 X122.002 Y74.558 E0.09412
G1 X125.000 Y74.410 E0.09412
G1 X127.998 Y74.558 E0.09412
G1 X130.968 Y74.998 E0.09412
G1 X133.879 Y75.728 E0.09411
G1 X136.707 Y76.739 E0.09415
G1 X139.419 Y78.023 E0.09409
G1 X141.995 Y79.565 E0.09413
G1 X144.406 Y81.354 E0.09413
G1 X146.631 Y83.369 E0.09411
G1 X148.646 Y85.594 E0.09411
G1 X150.435 Y88.005 E0.09413
G1 X151.977 Y90.581 E0.09413
G1 X153.261 Y93.293 E0.09409
G1 X154.272 Y96.121 E0.09415
G1 X155.002 Y99.032 E0.09411
G1 X155.442 Y102.002 E0.09412
G1 X155.590 Y105.000 E0.09412
G1 X155.442 Y107.998 E0.09412
G1 X155.002 Y110.968 E0.09412
G1 X154.272 Y113.879 E0.09411
G1 X153.261 Y116.707 E0.09415
G1 X151.977 Y119.419 E0.09409
G1 X150.435 Y121.995 E0.09413
G1 X148.646 Y124.406 E0.09413
G1 X146.631 Y126.631 E0.09411
G1 X144.406 Y128.646 E0.09411
G1 X141.995 Y130.435 E0.09413
G1 X139.419 Y131.977 E0.09413
G1 X136.707 Y133.261 E0.09410
G1 X133.879 Y134.272 E0.09415
G1 X130.968 Y135.002 E0.09411
G1 X127.998 Y135.442 E0.09412
G1 X125.000 Y135.590 E0.09412
G1 X122.002 Y135.442 E0.09412
G1 X119.032 Y135.002 E0.09412
G1 X116.121 Y134.272 E0.09411
G1 X113.293 Y133.261 E0.09415
G1 X110.581 Y131.977 E0.09410
G1 X108.005 Y130.435 E0.09413
G1 X105.594 Y128.646 E0.09413
G1 X103.369 Y126.631 E0.09411
G1 X101.354 Y124.406 E0.09411
G1 X99.565 Y121.995 E0.09413
G1 X98.023 Y119.419 E0.09413
G1 X96.739 Y116.707 E0.09409
G1 X95.728 Y113.879 E0.09415
G1 X94.998 Y110.968 E0.09411
G1 X94.558 Y107.998 E0.09412
G1 X94.410 Y105.000 E0.09412
G1 X94.558 Y102.002 E0.09412
G1 X94.998 Y99.032 E0.09412
G1 X95.728 Y96.121 E0.09411
G1 X96.739 Y93.293 E0.09415
G1 X98.023 Y90.581 E0.09409
G1 X99.565 Y88.005 E0.09413
G1 X101.272 Y85.705 E0.08979
G1 X101.702 Y85.721 F10800.000
;WIPE_START
G1 F8640.000
G1 X103.369 Y83.369 E-0.72490
G1 X103.482 Y83.267 E-0.03510
;WIPE_END
G1 E-0.04000 F2100.000
G1 Z0.600 F10800.000
G1 X143.957 Y81.631
G1 Z0.200
G1 E0.80000 F2100.000
;TYPE:Solid infill
;WIDTH:0.421766
G1 F1200.000
G1 X146.173 Y83.847 E0.09874
G1 X148.135 Y86.013 E0.09206
G1 X149.090 Y87.300 E0.05048
G1 X142.700 Y80.910 E0.28466
G1 X141.628 Y80.115 E0.04205
G1 X140.982 Y79.728 E0.02371
G1 X150.272 Y89.018 E0.41385
G1 X151.073 Y90.354 E0.04907
G1 X139.646 Y78.927 E0.50905
G1 X139.108 Y78.605 E0.01975
G1 X138.500 Y78.318 E0.02117
G1 X151.682 Y91.500 E0.58723
G1 X152.163 Y92.516 E0.03543
G1 X137.484 Y77.837 E0.65396
G1 X136.467 Y77.356 E0.03543
G1 X152.644 Y93.533 E0.72068
G1 X152.945 Y94.370 E0.02801
G1 X135.630 Y77.055 E0.77136
G1 X134.796 Y76.756 E0.02791
G1 X153.244 Y95.204 E0.82183
M73 P1 R76
M73 Q1 S76
G1 X153.542 Y96.038 E0.02791
G1 X133.962 Y76.458 E0.87230
G1 X133.688 Y76.360 E0.00917
G1 X133.208 Y76.240 E0.01559
G1 X153.760 Y96.792 E0.91561
G1 X153.939 Y97.507 E0.02321
G1 X132.493 Y76.061 E0.95543
G1 X131.778 Y75.882 E0.02321
G1 X154.118 Y98.222 E0.99525
M73 P1 R75
G1 X154.297 Y98.937 E0.02321
G1 X131.063 Y75.703 E1.03506
G1 X130.839 Y75.646 E0.00729
G1 X130.407 Y75.582 E0.01374
G1 X154.418 Y99.593 E1.06965
G1 X154.511 Y100.222 E0.02004
G1 X129.778 Y75.489 E1.10183
G1 X129.149 Y75.396 E0.02004
G1 X154.604 Y100.851 E1.13402
M73 Q1 S75
G1 X154.698 Y101.480 E0.02004
G1 X128.520 Y75.302 E1.16621
G1 X127.895 Y75.213 E0.01988
G1 X154.787 Y102.105 E1.19800
G1 X154.814 Y102.668 E0.01777
G1 X127.332 Y75.186 E1.22433
G1 X126.768 Y75.158 E0.01777
G1 X154.842 Y103.232 E1.25067
G1 X154.870 Y103.795 E0.01777
G1 X126.205 Y75.130 E1.27700
G1 X125.641 Y75.103 E0.01777
G1 X154.897 Y104.359 E1.30333
G1 X154.925 Y104.922 E0.01777
G1 X125.078 Y75.075 E1.32967
G1 X124.560 Y75.093 E0.01633
G1 X154.907 Y105.440 E1.35195
G1 X154.882 Y105.951 E0.01611
G1 X124.049 Y75.118 E1.37358
G1 X123.539 Y75.143 E0.01611
G1 X154.857 Y106.461 E1.39522
G1 X154.832 Y106.972 E0.01611
G1 X123.028 Y75.168 E1.41685
G1 X122.517 Y75.193 E0.01611
G1 X154.807 Y107.483 E1.43849
G1 X154.777 Y107.988 E0.01595
G1 X122.012 Y75.223 E1.45966
G1 X121.545 Y75.293 E0.01486
G1 X154.707 Y108.455 E1.47736
G1 X154.638 Y108.921 E0.01486
G1 X121.079 Y75.362 E1.49506
M73 P2 R75
M73 Q2 S75
G1 X120.612 Y75.431 E0.01486
G1 X154.569 Y109.388 E1.51275
G1 X154.500 Y109.854 E0.01486
G1 X120.146 Y75.500 E1.53045
G1 X119.679 Y75.570 E0.01486
G1 X154.430 Y110.321 E1.54815
G1 X154.361 Y110.787 E0.01486
G1 X119.213 Y75.639 E1.56585
G1 X118.780 Y75.742 E0.01401
G1 X154.258 Y111.220 E1.58053
G1 X154.151 Y111.649 E0.01391
G1 X118.351 Y75.849 E1.59484
G1 X117.923 Y75.956 E0.01391
G1 X154.044 Y112.077 E1.60915
G1 X153.936 Y112.506 E0.01391
G1 X117.494 Y76.064 E1.62346
M73 P2 R74
G1 X117.066 Y76.171 E0.01391
G1 X153.829 Y112.934 E1.63777
G1 X153.722 Y113.362 E0.01391
G1 X116.638 Y76.278 E1.65207
G1 X116.217 Y76.394 E0.01373
G1 X153.606 Y113.783 E1.66565
M73 Q2 S74
G1 X153.465 Y114.177 E0.01320
G1 X115.823 Y76.535 E1.67694
G1 X115.428 Y76.676 E0.01320
G1 X153.324 Y114.572 E1.68823
G1 X153.183 Y114.966 E0.01320
G1 X115.034 Y76.817 E1.69952
G1 X114.639 Y76.959 E0.01320
G1 X153.041 Y115.361 E1.71080
G1 X152.900 Y115.756 E0.01320
G1 X114.244 Y77.100 E1.72209
G1 X113.850 Y77.241 E0.01320
G1 X152.759 Y116.150 E1.73338
G1 X152.611 Y116.538 E0.01307
G1 X113.462 Y77.389 E1.74403
M73 P3 R74
M73 Q3 S74
G1 X113.099 Y77.561 E0.01267
G1 X152.439 Y116.901 E1.75257
G1 X152.267 Y117.265 E0.01267
G1 X112.735 Y77.733 E1.76111
G1 X112.371 Y77.906 E0.01267
G1 X152.094 Y117.629 E1.76965
G1 X151.922 Y117.993 E0.01267
G1 X112.007 Y78.078 E1.77819
G1 X111.644 Y78.250 E0.01267
G1 X151.750 Y118.356 E1.78672
G1 X151.578 Y118.720 E0.01267
G1 X111.280 Y78.422 E1.79526
G1 X110.916 Y78.594 E0.01267
G1 X151.406 Y119.084 E1.80380
G1 X151.207 Y119.421 E0.01232
G1 X110.579 Y78.793 E1.80996
G1 X110.244 Y78.993 E0.01230
G1 X151.007 Y119.756 E1.81594
G1 X150.806 Y120.091 E0.01230
G1 X109.909 Y79.194 E1.82193
G1 X109.574 Y79.395 E0.01230
G1 X150.605 Y120.426 E1.82791
G1 X150.405 Y120.761 E0.01230
G1 X109.239 Y79.595 E1.83389
M73 P3 R73
G1 X108.904 Y79.796 E0.01230
G1 X150.204 Y121.096 E1.83988
G1 X150.003 Y121.431 E0.01230
G1 X108.569 Y79.997 E1.84586
M73 Q3 S73
G1 X108.245 Y80.209 E0.01219
G1 X149.791 Y121.755 E1.85084
G1 X149.563 Y122.062 E0.01206
G1 X107.938 Y80.437 E1.85438
M73 P4 R73
M73 Q4 S73
G1 X107.630 Y80.665 E0.01206
G1 X149.335 Y122.370 E1.85792
G1 X149.107 Y122.677 E0.01206
G1 X107.323 Y80.893 E1.86146
G1 X107.015 Y81.122 E0.01206
G1 X148.878 Y122.985 E1.86499
G1 X148.650 Y123.293 E0.01206
G1 X106.707 Y81.350 E1.86853
G1 X106.400 Y81.578 E0.01206
G1 X148.422 Y123.600 E1.87207
G1 X148.194 Y123.908 E0.01206
G1 X106.092 Y81.806 E1.87561
G1 X105.804 Y82.054 E0.01197
G1 X147.946 Y124.196 E1.87740
G1 X147.691 Y124.477 E0.01195
G1 X105.523 Y82.309 E1.87857
G1 X105.242 Y82.563 E0.01195
G1 X147.437 Y124.758 E1.87975
G1 X147.182 Y125.039 E0.01195
G1 X104.961 Y82.818 E1.88092
G1 X104.680 Y83.073 E0.01195
G1 X146.927 Y125.320 E1.88210
G1 X146.673 Y125.601 E0.01195
G1 X104.399 Y83.327 E1.88328
G1 X104.118 Y83.582 E0.01195
G1 X146.418 Y125.882 E1.88445
G1 X146.163 Y126.163 E0.01195
G1 X103.837 Y83.837 E1.88563
G1 X103.582 Y84.118 E0.01195
G1 X145.882 Y126.418 E1.88445
M73 P5 R73
M73 Q5 S73
G1 X145.601 Y126.673 E0.01195
G1 X103.327 Y84.399 E1.88328
M73 P5 R72
G1 X103.073 Y84.680 E0.01195
G1 X145.320 Y126.927 E1.88210
G1 X145.039 Y127.182 E0.01195
G1 X102.818 Y84.961 E1.88092
M73 Q5 S72
G1 X102.563 Y85.242 E0.01195
G1 X144.758 Y127.437 E1.87975
G1 X144.477 Y127.691 E0.01195
G1 X102.309 Y85.523 E1.87857
G1 X102.054 Y85.804 E0.01195
G1 X144.196 Y127.946 E1.87740
G1 X143.908 Y128.194 E0.01197
G1 X101.806 Y86.092 E1.87561
G1 X101.578 Y86.400 E0.01206
G1 X143.600 Y128.422 E1.87207
G1 X143.293 Y128.650 E0.01206
G1 X101.350 Y86.707 E1.86853
G1 X101.121 Y87.015 E0.01206
G1 X142.985 Y128.879 E1.86499
G1 X142.677 Y129.107 E0.01206
G1 X100.893 Y87.323 E1.86145
G1 X100.665 Y87.630 E0.01206
G1 X142.370 Y129.335 E1.85792
G1 X142.062 Y129.563 E0.01206
G1 X100.437 Y87.938 E1.85438
G1 X100.209 Y88.245 E0.01206
G1 X141.755 Y129.791 E1.85084
G1 X141.431 Y130.003 E0.01219
G1 X99.997 Y88.569 E1.84586
M73 P6 R72
M73 Q6 S72
G1 X99.796 Y88.904 E0.01230
G1 X141.096 Y130.204 E1.83988
G1 X140.761 Y130.405 E0.01230
G1 X99.595 Y89.239 E1.83389
G1 X99.395 Y89.574 E0.01230
G1 X140.426 Y130.605 E1.82791
G1 X140.091 Y130.806 E0.01230
G1 X99.194 Y89.909 E1.82192
G1 X98.993 Y90.244 E0.01230
G1 X139.756 Y131.007 E1.81594
G1 X139.421 Y131.208 E0.01230
G1 X98.792 Y90.579 E1.80995
M73 P6 R71
G1 X98.594 Y90.916 E0.01232
G1 X139.084 Y131.406 E1.80380
G1 X138.720 Y131.578 E0.01267
G1 X98.422 Y91.280 E1.79526
M73 Q6 S71
G1 X98.250 Y91.644 E0.01267
G1 X138.356 Y131.750 E1.78672
G1 X137.992 Y131.922 E0.01267
G1 X98.078 Y92.008 E1.77818
G1 X97.905 Y92.371 E0.01267
G1 X137.629 Y132.095 E1.76965
G1 X137.265 Y132.267 E0.01267
G1 X97.733 Y92.735 E1.76111
G1 X97.561 Y93.099 E0.01267
G1 X136.901 Y132.439 E1.75257
G1 X136.538 Y132.611 E0.01267
G1 X97.389 Y93.462 E1.74403
G1 X97.241 Y93.850 E0.01307
G1 X136.150 Y132.759 E1.73338
G1 X135.756 Y132.900 E0.01320
G1 X97.100 Y94.244 E1.72209
M73 P7 R71
M73 Q7 S71
G1 X96.959 Y94.639 E0.01320
G1 X135.361 Y133.041 E1.71080
G1 X134.966 Y133.183 E0.01320
G1 X96.817 Y95.034 E1.69951
G1 X96.676 Y95.428 E0.01320
G1 X134.572 Y133.324 E1.68823
G1 X134.177 Y133.465 E0.01320
G1 X96.535 Y95.823 E1.67694
G1 X96.394 Y96.217 E0.01320
G1 X133.783 Y133.606 E1.66565
G1 X133.362 Y133.722 E0.01373
G1 X96.278 Y96.638 E1.65207
G1 X96.171 Y97.066 E0.01391
G1 X132.934 Y133.829 E1.63776
G1 X132.505 Y133.936 E0.01391
G1 X96.064 Y97.495 E1.62345
G1 X95.956 Y97.923 E0.01391
G1 X132.077 Y134.044 E1.60915
G1 X131.648 Y134.151 E0.01391
G1 X95.849 Y98.352 E1.59484
G1 X95.742 Y98.780 E0.01391
G1 X131.220 Y134.258 E1.58053
G1 X130.787 Y134.361 E0.01401
G1 X95.639 Y99.213 E1.56585
M73 P7 R70
G1 X95.570 Y99.679 E0.01486
G1 X130.321 Y134.430 E1.54815
G1 X129.854 Y134.500 E0.01486
G1 X95.500 Y100.146 E1.53045
M73 Q7 S70
G1 X95.431 Y100.612 E0.01486
G1 X129.388 Y134.569 E1.51275
G1 X128.921 Y134.638 E0.01486
G1 X95.362 Y101.079 E1.49505
G1 X95.293 Y101.545 E0.01486
G1 X128.455 Y134.707 E1.47735
G1 X127.988 Y134.777 E0.01486
G1 X95.223 Y102.012 E1.45965
M73 P8 R70
M73 Q8 S70
